; G-code generated from SVG file
; Source: gommern_gradient_roads_20260120_184711.svg
; Date: 2026-01-20 19:44:12
; Settings: min_power=-1, max_power=70, feedrate=8000, reposition_speed=10000
; Optimization: disabled
; SVG dimensions: 772.554331x771.497706, ViewBox: [0.0, 0.0, 772.554331, 771.497706]
; Total paths: 2892, Valid paths: 2892

G90 (use absolute coordinates)
G0 X0 Y0 S0
G1 M4 F8000

; Path 1/2892 - Power: 70 (100%)
G0 X0.0000 Y771.4977 S0 F10000
G1 F8000
M4
G1 X772.5543 Y771.4977 S70
G1 X772.5543 Y0.0000 S70
G1 X0.0000 Y0.0000 S70
G1 X0.0000 Y771.4977 S70
; Cutting distance: 3088.10 units
M5

; Path 2/2892 - Power: 70 (100%)
; Travel distance: 5.09 units
G0 X3.6000 Y767.8977 S0 F10000
G1 F8000
M4
G1 X768.9543 Y767.8977 S70
G1 X768.9543 Y3.6000 S70
G1 X3.6000 Y3.6000 S70
G1 X3.6000 Y767.8977 S70
; Cutting distance: 3059.30 units
M5

; Path 3/2892 - Power: 70 (100%)
; Travel distance: 536.73 units
G0 X539.7434 Y742.7060 S0 F10000
G1 F8000
M4
G1 X539.8130 Y742.2077 S70
G1 X540.0180 Y741.4932 S70
G1 X540.4281 Y740.9434 S70
G1 X541.1723 Y739.9323 S70
G1 X541.4837 Y739.4504 S70
G1 X541.7115 Y738.8862 S70
G1 X541.8279 Y738.3220 S70
G1 X541.8191 Y737.7578 S70
G1 X541.6874 Y737.0988 S70
G1 X541.3913 Y736.4831 S70
G1 X541.2799 Y735.9086 S70
G1 X541.2926 Y735.3753 S70
G1 X541.6824 Y734.2901 S70
G1 X542.2380 Y733.4541 S70
G1 X542.5873 Y732.3895 S70
G1 X542.8126 Y731.3249 S70
G1 X542.8709 Y730.4826 S70
G1 X542.8468 Y729.7640 S70
G1 X542.9670 Y729.1215 S70
G1 X543.1696 Y728.5614 S70
G1 X544.0365 Y727.3156 S70
G1 X545.0276 Y726.1130 S70
G1 X546.2439 Y725.0217 S70
G1 X546.8577 Y724.6016 S70
G1 X547.5956 Y724.2659 S70
G1 X549.0005 Y724.1362 S70
G1 X550.4472 Y724.2556 S70
G1 X551.2230 Y724.2268 S70
G1 X551.9166 Y724.0312 S70
G1 X553.0557 Y723.6420 S70
G1 X553.9151 Y723.4999 S70
G1 X554.7340 Y723.6070 S70
G1 X555.7225 Y723.4834 S70
G1 X556.6287 Y723.1519 S70
G1 X557.3299 Y723.1540 S70
G1 X558.0716 Y723.3208 S70
G1 X558.7703 Y723.9612 S70
G1 X559.3449 Y724.6448 S70
G1 X560.0068 Y725.5776 S70
G1 X560.6688 Y726.2922 S70
G1 X561.6459 Y726.7823 S70
G1 X562.9267 Y727.4639 S70
G1 X564.1532 Y728.1269 S70
G1 X565.2417 Y728.9671 S70
G1 X566.2479 Y729.8917 S70
G1 X566.7908 Y730.7812 S70
G1 X567.1288 Y731.5040 S70
G1 X567.5490 Y732.0682 S70
G1 X568.0527 Y732.5068 S70
G1 X568.6830 Y733.0381 S70
G1 X569.1906 Y733.6106 S70
G1 X569.3171 Y734.0533 S70
G1 X569.3602 Y734.6628 S70
G1 X570.1322 Y735.2826 S70
G1 X571.0688 Y736.5840 S70
G1 X571.3738 Y736.9217 S70
G1 X571.6181 Y737.3027 S70
G1 X571.4473 Y738.0193 S70
G1 X570.7246 Y738.8121 S70
G1 X570.4664 Y739.2898 S70
G1 X570.2082 Y739.8932 S70
G1 X570.0145 Y740.4368 S70
G1 X569.9031 Y741.1452 S70
G1 X569.8614 Y742.2283 S70
G1 X570.0006 Y742.7101 S70
G1 X570.2638 Y743.1508 S70
G1 X570.7486 Y743.5791 S70
G1 X572.1813 Y744.7199 S70
G1 X572.9610 Y745.4530 S70
G1 X573.2863 Y745.9616 S70
G1 X573.4799 Y746.6123 S70
G1 X573.6546 Y747.3269 S70
G1 X573.9697 Y747.8993 S70
G1 X574.2646 Y748.6386 S70
G1 X574.4304 Y749.1760 S70
G1 X574.4735 Y749.8782 S70
G1 X574.5064 Y750.4774 S70
G1 X574.4153 Y751.0766 S70
G1 X574.2786 Y751.6800 S70
G1 X574.0596 Y752.2401 S70
G1 X573.6204 Y753.2388 S70
G1 X573.3078 Y753.9307 S70
G1 X572.9129 Y754.5402 S70
G1 X572.1434 Y755.7181 S70
G1 X570.5145 Y757.8411 S70
G1 X570.5815 Y758.4692 S70
G1 X560.5852 Y765.9090 S70
G1 X560.5207 Y765.7628 S70
G1 X560.3308 Y765.5590 S70
G1 X560.1233 Y765.4066 S70
G1 X559.8549 Y765.4004 S70
G1 X559.5866 Y765.4560 S70
G1 X559.3221 Y765.5590 S70
G1 X558.8918 Y765.9729 S70
G1 X558.7779 Y766.1541 S70
G1 X558.6779 Y766.4279 S70
G1 X558.6804 Y767.0457 S70
G1 X558.7703 Y767.2949 S70
G1 X556.7376 Y769.0616 S70
G1 X556.0212 Y769.0184 S70
G1 X555.4985 Y769.2181 S70
G1 X554.8112 Y769.4199 S70
G1 X551.1155 Y769.9595 S70
G1 X550.4586 Y770.1757 S70
G1 X549.8840 Y770.4743 S70
G1 X549.2499 Y771.0405 S70
G1 X548.4499 Y771.4833 S70
G1 X547.7791 Y771.5038 S70
G1 X547.1741 Y771.0117 S70
G1 X546.1211 Y770.7214 S70
G1 X545.4490 Y769.9368 S70
G1 X544.6820 Y769.2676 S70
G1 X544.0669 Y768.4027 S70
G1 X542.6380 Y763.1682 S70
G1 X541.8368 Y761.8503 S70
G1 X541.5128 Y761.1111 S70
G1 X541.2533 Y760.3368 S70
G1 X541.1584 Y759.4843 S70
G1 X540.9293 Y758.3662 S70
G1 X540.4332 Y757.7443 S70
G1 X539.9041 Y756.2576 S70
G1 X539.7978 Y755.5204 S70
G1 X539.9788 Y754.9067 S70
G1 X540.7268 Y753.6589 S70
G1 X541.3748 Y752.3225 S70
G1 X542.2304 Y751.2352 S70
G1 X542.9303 Y750.5001 S70
G1 X543.3847 Y749.8247 S70
G1 X543.4936 Y749.2398 S70
G1 X543.3543 Y748.6530 S70
G1 X542.9114 Y747.5225 S70
G1 X542.1532 Y746.3776 S70
G1 X541.6014 Y745.5683 S70
G1 X540.9268 Y744.8826 S70
G1 X540.3749 Y744.5202 S70
G1 X539.8636 Y743.8901 S70
G1 X539.7560 Y743.2455 S70
G1 X539.7434 Y742.7060 S70
; Cutting distance: 138.57 units
M5

; Path 4/2892 - Power: 70 (100%)
; Travel distance: 150.31 units
G0 X688.4639 Y764.4799 S0 F10000
G1 F8000
M4
G1 X691.4674 Y760.8619 S70
G1 X690.6535 Y759.0951 S70
G1 X691.7572 Y755.5636 S70
G1 X694.3873 Y754.2725 S70
G1 X696.3061 Y753.6630 S70
G1 X698.8855 Y749.9935 S70
G1 X700.2436 Y749.0442 S70
G1 X702.1446 Y748.0929 S70
G1 X703.6900 Y747.5492 S70
G1 X705.5062 Y744.6108 S70
G1 X705.4556 Y742.8460 S70
G1 X704.8607 Y741.3161 S70
G1 X705.6758 Y739.3990 S70
G1 X708.5274 Y736.5449 S70
G1 X711.7359 Y734.7472 S70
G1 X713.8584 Y733.7753 S70
G1 X715.5532 Y734.8852 S70
G1 X719.2540 Y734.7967 S70
G1 X726.3582 Y735.2373 S70
G1 X727.7922 Y737.3356 S70
G1 X726.5038 Y738.5506 S70
G1 X725.7216 Y740.0847 S70
G1 X725.1875 Y742.8378 S70
G1 X725.5938 Y743.9045 S70
G1 X724.1433 Y747.1415 S70
G1 X721.1209 Y752.5593 S70
G1 X717.7605 Y756.0908 S70
G1 X716.2670 Y759.3670 S70
G1 X715.1811 Y761.6774 S70
G1 X705.1329 Y772.0022 S70
G1 X703.5710 Y773.5630 S70
G1 X701.0751 Y773.9193 S70
G1 X697.4603 Y773.4271 S70
G1 X694.1493 Y771.5780 S70
G1 X691.9433 Y769.6918 S70
G1 X688.9563 Y766.0902 S70
G1 X688.4639 Y764.4799 S70
G1 X712.8902 Y755.9137 S70
G1 X713.9761 Y756.0311 S70
G1 X715.2836 Y756.0146 S70
G1 X716.2341 Y756.5232 S70
G1 X717.0998 Y755.3701 S70
G1 X717.1163 Y754.2993 S70
G1 X717.9478 Y753.1956 S70
G1 X718.4921 Y752.4995 S70
G1 X717.5580 Y751.8880 S70
G1 X716.6581 Y751.8035 S70
G1 X715.7582 Y752.6519 S70
G1 X714.5191 Y752.8393 S70
G1 X713.9420 Y754.0275 S70
G1 X713.5521 Y754.7750 S70
G1 X712.7206 Y755.2506 S70
; Cutting distance: 165.41 units
M5

; Path 5/2892 - Power: 70 (100%)
; Travel distance: 511.02 units
G0 X248.7445 Y541.0759 S0 F10000
G1 F8000
M4
G1 X250.6785 Y533.1563 S70
G1 X251.7834 Y526.5236 S70
G1 X250.1254 Y522.1046 S70
G1 X249.8292 Y518.8407 S70
G1 X251.1291 Y517.4817 S70
G1 X253.4377 Y516.3944 S70
G1 X256.2892 Y516.8021 S70
G1 X259.2079 Y516.0547 S70
G1 X263.1808 Y516.1576 S70
G1 X266.6083 Y516.8557 S70
G1 X277.9335 Y514.0922 S70
G1 X286.5895 Y515.0127 S70
G1 X290.2903 Y515.5316 S70
G1 X291.1219 Y516.4212 S70
G1 X290.4675 Y518.0582 S70
G1 X289.9802 Y524.3079 S70
G1 X284.5606 Y531.5213 S70
G1 X279.3878 Y534.9025 S70
G1 X272.6076 Y537.8286 S70
G1 X268.5903 Y541.8090 S70
G1 X264.6730 Y544.5807 S70
G1 X257.6916 Y543.1948 S70
G1 X253.4339 Y541.5331 S70
G1 X248.7445 Y541.0759 S70
; Cutting distance: 123.46 units
M5

; Path 6/2892 - Power: 70 (100%)
; Travel distance: 67.46 units
G0 X211.4249 Y597.2775 S0 F10000
G1 F8000
M4
G1 X215.4851 Y590.5501 S70
G1 X223.8588 Y587.1648 S70
G1 X230.8681 Y584.4055 S70
G1 X237.2016 Y582.0806 S70
G1 X241.4884 Y582.8426 S70
G1 X245.3968 Y585.8098 S70
G1 X246.8865 Y599.8206 S70
G1 X242.4794 Y601.6553 S70
G1 X236.0081 Y601.3774 S70
G1 X230.7289 Y602.2093 S70
G1 X225.7903 Y599.1617 S70
G1 X219.4885 Y599.1617 S70
G1 X211.4249 Y597.2775 S70
; Cutting distance: 91.50 units
M5

; Path 7/2892 - Power: 70 (100%)
; Travel distance: 133.41 units
G0 X78.3620 Y587.6425 S0 F10000
G1 F8000
M4
G1 X83.9815 Y582.3792 S70
G1 X91.6452 Y579.3316 S70
G1 X96.6472 Y580.3653 S70
G1 X99.8063 Y587.1504 S70
G1 X99.1431 Y591.7403 S70
G1 X97.1117 Y596.2582 S70
G1 X94.9334 Y599.3449 S70
G1 X92.0490 Y601.2600 S70
G1 X87.2153 Y600.9676 S70
G1 X84.8333 Y593.7398 S70
G1 X79.8947 Y591.8000 S70
G1 X78.3620 Y587.6425 S70
; Cutting distance: 67.56 units
M5

; Path 8/2892 - Power: 70 (100%)
; Travel distance: 50.92 units
G0 X39.3463 Y620.3611 S0 F10000
G1 F8000
M4
G1 X39.3501 Y617.2640 S70
G1 X42.6839 Y612.9994 S70
G1 X43.0269 Y610.2793 S70
G1 X45.6417 Y609.5668 S70
G1 X48.5946 Y610.2793 S70
G1 X49.3641 Y609.3732 S70
G1 X51.4461 Y610.0754 S70
G1 X51.5145 Y608.8872 S70
G1 X52.9067 Y609.5318 S70
G1 X53.5851 Y610.2113 S70
G1 X56.1987 Y610.4831 S70
G1 X58.0985 Y611.6280 S70
G1 X58.6098 Y613.3351 S70
G1 X59.8996 Y613.7428 S70
G1 X61.5968 Y613.4710 S70
G1 X63.4979 Y612.6556 S70
G1 X65.1382 Y611.4242 S70
G1 X67.3341 Y613.0633 S70
G1 X68.8960 Y614.8301 S70
G1 X68.9631 Y618.5654 S70
G1 X67.4025 Y621.0097 S70
G1 X66.8570 Y622.1608 S70
G1 X68.6239 Y623.2851 S70
G1 X68.2163 Y626.9175 S70
G1 X64.4750 Y630.7847 S70
G1 X61.7386 Y632.5083 S70
G1 X55.4862 Y632.3167 S70
G1 X51.8676 Y632.0882 S70
G1 X50.0210 Y631.0606 S70
G1 X50.2247 Y628.8882 S70
G1 X51.2069 Y628.2334 S70
G1 X53.4839 Y627.4962 S70
G1 X56.3266 Y628.4352 S70
G1 X57.5226 Y627.8009 S70
G1 X58.7794 Y626.1721 S70
G1 X58.3149 Y624.3065 S70
G1 X57.2176 Y623.6578 S70
G1 X55.8254 Y622.5047 S70
G1 X55.9620 Y620.5011 S70
G1 X57.4517 Y619.1379 S70
G1 X54.9432 Y618.5654 S70
G1 X53.8231 Y617.6141 S70
G1 X52.5333 Y618.3266 S70
G1 X51.0727 Y619.0411 S70
G1 X49.2400 Y619.1420 S70
G1 X48.1528 Y620.5011 S70
G1 X45.9544 Y620.0769 S70
G1 X43.9103 Y618.5984 S70
G1 X42.3484 Y619.1420 S70
G1 X41.2625 Y620.7729 S70
G1 X39.3463 Y620.3611 S70
; Cutting distance: 119.50 units
M5

; Path 9/2892 - Power: 70 (100%)
; Travel distance: 22.39 units
G0 X24.4037 Y603.6857 S0 F10000
G1 F8000
M4
G1 X24.8315 Y599.8556 S70
G1 X24.9581 Y598.6510 S70
G1 X25.5011 Y597.6234 S70
G1 X26.4858 Y597.0633 S70
G1 X29.5006 Y598.6016 S70
G1 X36.3542 Y601.8118 S70
G1 X38.3628 Y603.1853 S70
G1 X39.1602 Y605.3187 S70
G1 X39.1324 Y607.1122 S70
G1 X33.0394 Y611.8134 S70
G1 X29.5132 Y611.9225 S70
G1 X26.9503 Y610.4131 S70
G1 X24.4037 Y603.6857 S70
; Cutting distance: 46.21 units
M5

; Path 10/2892 - Power: 70 (100%)
; Travel distance: 705.23 units
G0 X722.3562 Y704.7633 S0 F10000
G1 F8000
M4
G1 X722.6814 Y703.4166 S70
G1 X724.8913 Y702.4323 S70
G1 X726.2785 Y701.4439 S70
G1 X727.0670 Y700.7849 S70
G1 X727.9112 Y700.2001 S70
G1 X731.4576 Y699.6339 S70
G1 X731.8044 Y702.8400 S70
G1 X732.3208 Y705.3316 S70
G1 X733.0347 Y707.1849 S70
G1 X731.7437 Y708.2063 S70
G1 X730.1932 Y708.0580 S70
G1 X730.0312 Y709.5633 S70
G1 X729.8945 Y712.0076 S70
G1 X729.4199 Y714.6063 S70
G1 X727.8239 Y716.1342 S70
G1 X726.9480 Y715.9818 S70
G1 X725.2103 Y712.9424 S70
G1 X724.3445 Y710.0554 S70
G1 X723.2586 Y706.7772 S70
G1 X722.3562 Y704.7633 S70
; Cutting distance: 43.99 units
M5

; Path 11/2892 - Power: 70 (100%)
; Travel distance: 39.16 units
G0 X688.4298 Y724.3195 S0 F10000
G1 F8000
M4
G1 X688.4298 Y722.2829 S70
G1 X688.8373 Y719.9725 S70
G1 X690.1954 Y715.8974 S70
G1 X691.7471 Y713.0330 S70
G1 X694.4354 Y710.5002 S70
G1 X696.9845 Y709.3780 S70
G1 X699.7006 Y709.7857 S70
G1 X702.4167 Y710.4632 S70
G1 X703.5786 Y711.2024 S70
G1 X705.1278 Y710.6505 S70
G1 X710.9891 Y715.0984 S70
G1 X710.9208 Y717.1205 S70
G1 X709.8855 Y719.1571 S70
G1 X707.1023 Y723.6358 S70
G1 X706.7618 Y724.1836 S70
G1 X703.1951 Y728.6603 S70
G1 X701.0928 Y730.9871 S70
G1 X699.1576 Y732.4698 S70
G1 X697.6464 Y732.7416 S70
G1 X695.1518 Y732.6057 S70
G1 X692.6217 Y733.1658 S70
G1 X690.6194 Y732.5212 S70
G1 X689.2449 Y730.4332 S70
G1 X688.6449 Y727.1447 S70
G1 X688.4298 Y724.3195 S70
; Cutting distance: 73.27 units
M5

; Path 12/2892 - Power: 70 (100%)
; Travel distance: 23.37 units
G0 X711.6891 Y722.0214 S0 F10000
G1 F8000
M4
G1 X712.6548 Y719.7893 S70
G1 X713.6711 Y718.2902 S70
G1 X714.6381 Y717.1205 S70
G1 X716.5391 Y716.4410 S70
G1 X718.8477 Y717.8001 S70
G1 X720.6121 Y719.2930 S70
G1 X721.1563 Y720.5161 S70
G1 X720.0691 Y722.5547 S70
G1 X717.0821 Y723.5040 S70
G1 X712.8421 Y723.8170 S70
G1 X711.6891 Y722.0214 S70
; Cutting distance: 25.94 units
M5

; Path 13/2892 - Power: 70 (100%)
; Travel distance: 43.72 units
G0 X668.0284 Y719.7584 S0 F10000
G1 F8000
M4
G1 X668.6789 Y718.7494 S70
G1 X668.7397 Y718.2078 S70
G1 X669.0219 Y717.1535 S70
G1 X669.9648 Y714.8266 S70
G1 X671.6393 Y712.9363 S70
G1 X673.0050 Y708.6943 S70
G1 X672.7012 Y707.6730 S70
G1 X673.4315 Y706.5507 S70
G1 X674.1580 Y705.5376 S70
G1 X674.5605 Y704.6356 S70
G1 X675.5136 Y704.5718 S70
G1 X675.8059 Y703.9746 S70
G1 X676.9374 Y703.3939 S70
G1 X678.0588 Y702.7885 S70
G1 X676.3438 Y699.7327 S70
G1 X676.6160 Y696.7448 S70
G1 X676.7780 Y695.9685 S70
G1 X677.0235 Y695.2498 S70
G1 X678.2512 Y693.8063 S70
G1 X678.9638 Y693.1948 S70
G1 X679.6751 Y692.6408 S70
G1 X681.6875 Y691.6524 S70
G1 X682.0989 Y691.3291 S70
G1 X682.4558 Y690.8926 S70
G1 X682.7279 Y690.3304 S70
G1 X682.9026 Y689.7415 S70
G1 X683.8771 Y685.3842 S70
G1 X684.2961 Y684.2702 S70
G1 X684.7720 Y683.2942 S70
G1 X685.5174 Y682.2975 S70
G1 X686.3465 Y681.3565 S70
G1 X687.1071 Y680.5410 S70
G1 X687.9501 Y679.7832 S70
G1 X689.0196 Y678.9431 S70
G1 X690.0599 Y678.2697 S70
G1 X691.2231 Y677.7920 S70
G1 X692.3863 Y677.4831 S70
G1 X693.6469 Y677.1454 S70
G1 X694.9353 Y676.9477 S70
G1 X695.9884 Y676.9230 S70
G1 X697.0427 Y676.9807 S70
G1 X697.7211 Y677.1413 S70
G1 X698.3995 Y677.3843 S70
G1 X699.7550 Y678.0123 S70
G1 X701.1346 Y678.7186 S70
G1 X702.5142 Y679.4826 S70
G1 X703.4710 Y680.1127 S70
G1 X704.3152 Y680.7716 S70
G1 X704.9050 Y681.6036 S70
G1 X705.2417 Y682.3819 S70
G1 X705.6214 Y683.1850 S70
G1 X705.9176 Y684.0746 S70
G1 X706.4251 Y688.1497 S70
G1 X705.3290 Y689.0290 S70
G1 X703.3673 Y691.1747 S70
G1 X696.8490 Y696.8807 S70
G1 X693.9975 Y699.1891 S70
G1 X692.6394 Y701.2277 S70
G1 X691.6889 Y702.9924 S70
G1 X690.8763 Y704.0138 S70
G1 X689.7878 Y704.7592 S70
G1 X682.9127 Y706.9852 S70
G1 X680.9534 Y707.8892 S70
G1 X680.3522 Y708.3525 S70
G1 X679.9105 Y708.9908 S70
G1 X679.9649 Y710.3540 S70
G1 X678.7144 Y711.7419 S70
G1 X677.5158 Y712.1991 S70
G1 X677.4235 Y713.0598 S70
G1 X677.5614 Y713.9205 S70
G1 X678.2841 Y714.6413 S70
G1 X678.9612 Y715.0861 S70
G1 X679.6055 Y715.6976 S70
G1 X680.1573 Y716.3092 S70
G1 X680.6016 Y716.9826 S70
G1 X681.0003 Y717.6539 S70
G1 X681.1838 Y718.4075 S70
G1 X681.1825 Y719.1612 S70
G1 X680.7345 Y720.0549 S70
G1 X679.9168 Y720.9012 S70
G1 X678.8321 Y721.6611 S70
G1 X677.7019 Y722.2829 S70
G1 X676.8210 Y722.6124 S70
G1 X676.1426 Y722.4436 S70
G1 X675.7123 Y722.4374 S70
G1 X674.9693 Y722.5197 S70
G1 X673.9137 Y722.3076 S70
G1 X673.1353 Y722.3365 S70
G1 X672.3658 Y722.0255 S70
G1 X672.5088 Y721.3151 S70
G1 X672.0772 Y721.2080 S70
G1 X671.2508 Y720.6582 S70
G1 X670.6597 Y719.9272 S70
G1 X669.3004 Y719.9210 S70
G1 X668.1992 Y720.2031 S70
G1 X668.0284 Y719.7584 S70
; Cutting distance: 138.74 units
M5

; Path 14/2892 - Power: 70 (100%)
; Travel distance: 76.28 units
G0 X725.3824 Y770.0480 S0 F10000
G1 F8000
M4
G1 X725.6874 Y766.9757 S70
G1 X725.7393 Y764.8527 S70
G1 X727.6391 Y760.2854 S70
G1 X729.9983 Y756.4285 S70
G1 X732.4271 Y753.5600 S70
G1 X734.4472 Y753.0329 S70
G1 X736.2292 Y752.0321 S70
G1 X737.8581 Y753.1194 S70
G1 X738.4492 Y755.5636 S70
G1 X738.6732 Y760.1824 S70
G1 X739.7592 Y763.5636 S70
G1 X737.6885 Y768.6230 S70
G1 X735.7698 Y770.1345 S70
G1 X733.4283 Y770.7955 S70
G1 X726.9949 Y770.9149 S70
G1 X725.3824 Y770.0480 S70
; Cutting distance: 53.83 units
M5

; Path 15/2892 - Power: 70 (100%)
; Travel distance: 508.56 units
G0 X217.6254 Y741.4170 S0 F10000
G1 F8000
M4
G1 X217.6861 Y740.1197 S70
G1 X217.9937 Y738.9047 S70
G1 X218.6987 Y737.4098 S70
G1 X219.5264 Y736.1207 S70
G1 X220.4099 Y734.9779 S70
G1 X221.2921 Y734.0821 S70
G1 X223.0703 Y732.4780 S70
G1 X224.9321 Y731.2857 S70
G1 X226.4003 Y730.9233 S70
G1 X227.8280 Y731.0139 S70
G1 X228.6975 Y730.7812 S70
G1 X229.2772 Y730.3406 S70
G1 X229.4860 Y729.2224 S70
G1 X229.9834 Y728.3081 S70
G1 X230.9529 Y727.9066 S70
G1 X232.0883 Y727.6286 S70
G1 X233.1742 Y727.5606 S70
G1 X234.4639 Y727.6286 S70
G1 X235.1765 Y728.2752 S70
G1 X235.5587 Y729.0845 S70
G1 X235.8372 Y729.9473 S70
G1 X236.2409 Y730.4806 S70
G1 X236.9117 Y731.1169 S70
G1 X237.6243 Y731.4649 S70
G1 X238.5723 Y731.6255 S70
G1 X239.4785 Y731.9900 S70
G1 X240.0354 Y732.5007 S70
G1 X240.3848 Y733.2584 S70
G1 X240.7442 Y733.9030 S70
G1 X241.2277 Y734.5042 S70
G1 X241.5669 Y735.1900 S70
G1 X241.8643 Y735.9169 S70
G1 X242.0276 Y736.9012 S70
G1 X242.0681 Y737.8854 S70
G1 X242.1225 Y739.1827 S70
G1 X242.1364 Y740.6036 S70
G1 X242.0289 Y741.4726 S70
G1 X241.7972 Y742.3004 S70
G1 X241.6011 Y743.0478 S70
G1 X241.3214 Y743.7953 S70
G1 X240.8531 Y744.4357 S70
G1 X240.3025 Y744.9505 S70
G1 X237.9952 Y746.4435 S70
G1 X235.8220 Y747.5307 S70
G1 X233.6488 Y748.2782 S70
G1 X232.8211 Y748.4429 S70
G1 X231.9516 Y748.4821 S70
G1 X230.7973 Y748.4635 S70
G1 X229.6430 Y748.2782 S70
G1 X227.6749 Y747.8025 S70
G1 X224.7549 Y747.1230 S70
G1 X221.6313 Y746.3076 S70
G1 X220.5453 Y745.9678 S70
G1 X219.5606 Y745.5559 S70
G1 X218.5759 Y745.0185 S70
G1 X218.0329 Y744.3390 S70
G1 X217.8216 Y743.5915 S70
G1 X217.6937 Y742.8440 S70
G1 X217.6254 Y741.4170 S70
; Cutting distance: 72.61 units
M5

; Path 16/2892 - Power: 70 (100%)
; Travel distance: 85.32 units
G0 X132.3480 Y743.9992 S0 F10000
G1 F8000
M4
G1 X132.6202 Y739.8561 S70
G1 X132.7556 Y738.6329 S70
G1 X133.4353 Y737.0700 S70
G1 X135.1325 Y736.3905 S70
G1 X137.3728 Y737.2739 S70
G1 X142.1254 Y739.8561 S70
G1 X143.5518 Y740.6715 S70
G1 X143.8910 Y741.4849 S70
G1 X143.2113 Y742.7081 S70
G1 X137.0336 Y745.0185 S70
G1 X133.9099 Y746.1716 S70
G1 X132.9594 Y746.3076 S70
G1 X132.3480 Y743.9992 S70
; Cutting distance: 33.93 units
M5

; Path 17/2892 - Power: 70 (100%)
; Travel distance: 151.62 units
G0 X283.1177 Y727.9828 S0 F10000
G1 F8000
M4
G1 X283.2139 Y727.3588 S70
G1 X283.5455 Y726.5619 S70
G1 X283.9607 Y725.9318 S70
G1 X284.9783 Y724.9125 S70
G1 X286.4047 Y723.7573 S70
G1 X288.6449 Y722.1285 S70
G1 X289.6828 Y721.5828 S70
G1 X290.8852 Y721.2451 S70
G1 X292.1078 Y721.1154 S70
G1 X293.3305 Y721.1092 S70
G1 X295.0606 Y721.1277 S70
G1 X296.7921 Y721.3131 S70
G1 X298.2463 Y721.6446 S70
G1 X299.5766 Y722.0605 S70
G1 X301.2055 Y722.9439 S70
G1 X301.9522 Y723.5535 S70
G1 X302.7547 Y723.9756 S70
G1 X303.3103 Y724.2330 S70
G1 X303.7457 Y724.5645 S70
G1 X304.0570 Y724.9805 S70
G1 X304.3899 Y725.9792 S70
G1 X304.6000 Y727.0191 S70
G1 X304.7367 Y728.7159 S70
G1 X304.8721 Y731.4340 S70
G1 X304.7506 Y732.5192 S70
G1 X304.6279 Y733.1246 S70
G1 X304.4646 Y733.6064 S70
G1 X303.9900 Y734.4219 S70
G1 X303.2027 Y734.8317 S70
G1 X302.2927 Y735.0335 S70
G1 X300.3056 Y735.0952 S70
G1 X298.8298 Y735.5771 S70
G1 X297.1325 Y736.6623 S70
G1 X296.6503 Y737.1462 S70
G1 X296.0036 Y737.5457 S70
G1 X294.7556 Y737.6816 S70
G1 X294.1316 Y737.6754 S70
G1 X293.4659 Y737.5457 S70
G1 X293.0001 Y737.3624 S70
G1 X292.5761 Y737.0988 S70
G1 X291.7686 Y736.5264 S70
G1 X291.2661 Y736.2134 S70
G1 X290.6814 Y735.9848 S70
G1 X289.4600 Y735.8489 S70
G1 X288.1020 Y735.8489 S70
G1 X286.8793 Y735.6450 S70
G1 X286.3629 Y735.4021 S70
G1 X285.9288 Y735.0335 S70
G1 X284.5707 Y733.0628 S70
G1 X284.0619 Y732.2433 S70
G1 X283.5531 Y731.2981 S70
G1 X283.1456 Y730.0070 S70
G1 X283.1456 Y728.6479 S70
G1 X283.1177 Y727.9828 S70
; Cutting distance: 61.99 units
M5

; Path 18/2892 - Power: 70 (100%)
; Travel distance: 625.28 units
G0 X326.9012 Y104.2406 S0 F10000
G1 F8000
M4
G1 X327.3771 Y103.7155 S70
G1 X328.1580 Y103.3757 S70
G1 X328.6833 Y103.3922 S70
G1 X330.0072 Y104.1046 S70
G1 X331.1956 Y104.2406 S70
G1 X332.2816 Y104.2406 S70
G1 X333.1815 Y104.0717 S70
G1 X334.0814 Y103.6640 S70
G1 X334.8281 Y103.7484 S70
G1 X335.3040 Y104.3003 S70
G1 X335.2180 Y105.0560 S70
G1 X334.6244 Y105.5976 S70
G1 X333.7422 Y105.5481 S70
G1 X332.7069 Y105.2578 S70
G1 X331.6538 Y105.1734 S70
G1 X330.8906 Y105.3093 S70
G1 X329.3794 Y105.9723 S70
G1 X328.5820 Y106.2256 S70
G1 X327.9542 Y106.1927 S70
G1 X327.2240 Y105.7499 S70
G1 X326.9354 Y104.9530 S70
G1 X326.9012 Y104.2406 S70
; Cutting distance: 20.14 units
M5

; Path 19/2892 - Power: 70 (100%)
; Travel distance: 29.17 units
G0 X297.7401 Y104.7924 S0 F10000
G1 F8000
M4
G1 X298.0451 Y103.1286 S70
G1 X299.1323 Y101.7036 S70
G1 X303.3419 Y100.2107 S70
G1 X307.2795 Y99.2944 S70
G1 X311.2511 Y98.2092 S70
G1 X312.9484 Y98.3430 S70
G1 X313.4914 Y98.9896 S70
G1 X313.2205 Y100.3796 S70
G1 X309.6551 Y103.3675 S70
G1 X306.6340 Y104.9283 S70
G1 X301.5763 Y106.4892 S70
G1 X298.7918 Y107.4055 S70
G1 X298.1134 Y106.7610 S70
G1 X297.7401 Y104.7924 S70
; Cutting distance: 39.29 units
M5

; Path 20/2892 - Power: 70 (100%)
; Travel distance: 388.12 units
G0 X452.7460 Y460.6129 S0 F10000
G1 F8000
M4
G1 X452.8485 Y459.4248 S70
G1 X453.3915 Y458.8811 S70
G1 X453.7990 Y458.2366 S70
G1 X454.3648 Y457.8659 S70
G1 X454.9596 Y457.5983 S70
G1 X455.5634 Y457.4541 S70
G1 X456.2430 Y457.7259 S70
G1 X456.8543 Y458.5105 S70
G1 X457.0809 Y459.3177 S70
G1 X457.1606 Y460.2526 S70
G1 X457.6948 Y461.3542 S70
G1 X458.7972 Y462.1182 S70
G1 X459.8325 Y462.4435 S70
G1 X460.7577 Y462.4785 S70
G1 X462.1841 Y462.9542 S70
G1 X463.1004 Y463.4299 S70
G1 X463.6776 Y464.2103 S70
G1 X463.3713 Y464.8569 S70
G1 X462.6246 Y465.3305 S70
G1 X461.9120 Y465.8742 S70
G1 X460.4185 Y465.8062 S70
G1 X459.3996 Y465.2296 S70
G1 X459.2642 Y464.5171 S70
G1 X459.3996 Y463.3290 S70
G1 X458.7275 Y462.7648 S70
G1 X458.0289 Y462.3612 S70
G1 X457.6580 Y462.2129 S70
G1 X456.9480 Y461.8649 S70
G1 X455.8722 Y461.7084 S70
G1 X454.8103 Y461.8072 S70
G1 X454.0686 Y461.7496 S70
G1 X453.3231 Y461.4263 S70
G1 X452.7460 Y460.6129 S70
; Cutting distance: 30.92 units
M5

; Path 21/2892 - Power: 70 (100%)
; Travel distance: 378.25 units
G0 X180.0614 Y198.4796 S0 F10000
G1 F8000
M4
G1 X181.1841 Y197.6147 S70
; Cutting distance: 1.42 units
M5

; Path 22/2892 - Power: 70 (100%)
; Travel distance: 1.42 units
G0 X180.0614 Y198.4796 S0 F10000
G1 F8000
M4
G1 X182.1485 Y201.3089 S70
; Cutting distance: 3.52 units
M5

; Path 23/2892 - Power: 70 (100%)
; Travel distance: 16.33 units
G0 X172.4484 Y188.1671 S0 F10000
G1 F8000
M4
G1 X177.7086 Y195.2116 S70
G1 X180.0614 Y198.4796 S70
; Cutting distance: 12.82 units
M5

; Path 24/2892 - Power: 70 (100%)
; Travel distance: 274.76 units
G0 X361.9920 Y404.3804 S0 F10000
G1 F8000
M4
G1 X365.9169 Y404.9344 S70
; Cutting distance: 3.96 units
M5

; Path 25/2892 - Power: 70 (100%)
; Travel distance: 0.00 units
G0 X365.9169 Y404.9344 S0 F10000
G1 F8000
M4
G1 X366.1422 Y403.5815 S70
G1 X366.2143 Y403.2685 S70
G1 X366.3852 Y402.5251 S70
; Cutting distance: 2.46 units
M5

; Path 26/2892 - Power: 70 (100%)
; Travel distance: 2.45 units
G0 X365.9169 Y404.9344 S0 F10000
G1 F8000
M4
G1 X369.0722 Y405.4121 S70
G1 X374.9348 Y406.2955 S70
G1 X387.6511 Y408.2147 S70
; Cutting distance: 21.98 units
M5

; Path 27/2892 - Power: 70 (100%)
; Travel distance: 44.54 units
G0 X375.3348 Y365.4123 S0 F10000
G1 F8000
M4
G1 X376.6777 Y365.4658 S70
G1 X386.1740 Y364.6380 S70
G1 X398.9383 Y363.7114 S70
; Cutting distance: 23.67 units
M5

; Path 28/2892 - Power: 70 (100%)
; Travel distance: 26.19 units
G0 X372.7870 Y365.0663 S0 F10000
G1 F8000
M4
G1 X373.8274 Y365.2084 S70
G1 X375.3348 Y365.4123 S70
; Cutting distance: 2.57 units
M5

; Path 29/2892 - Power: 70 (100%)
; Travel distance: 0.00 units
G0 X375.3348 Y365.4123 S0 F10000
G1 F8000
M4
G1 X375.8335 Y360.3055 S70
G1 X376.6701 Y352.7770 S70
G1 X376.9877 Y349.9807 S70
; Cutting distance: 15.52 units
M5

; Path 30/2892 - Power: 70 (100%)
; Travel distance: 34.22 units
G0 X370.3037 Y383.5414 S0 F10000
G1 F8000
M4
G1 X373.1312 Y377.1867 S70
G1 X374.0868 Y374.2421 S70
G1 X374.5716 Y371.8514 S70
G1 X375.3348 Y365.4123 S70
; Cutting distance: 18.97 units
M5

; Path 31/2892 - Power: 70 (100%)
; Travel distance: 80.05 units
G0 X381.2708 Y285.5835 S0 F10000
G1 F8000
M4
G1 X381.8492 Y284.4653 S70
G1 X382.4858 Y283.4254 S70
G1 X383.0415 Y282.6677 S70
G1 X383.9401 Y281.7122 S70
G1 X384.4603 Y281.1912 S70
G1 X384.5742 Y281.0903 S70
G1 X385.2273 Y280.4705 S70
G1 X386.7461 Y279.1753 S70
G1 X393.3263 Y273.7040 S70
G1 X395.1236 Y272.2090 S70
G1 X406.5299 Y262.7244 S70
G1 X416.1097 Y254.7594 S70
G1 X424.0392 Y248.3986 S70
G1 X432.4964 Y241.8936 S70
G1 X450.0121 Y228.6509 S70
G1 X456.9594 Y223.3979 S70
; Cutting distance: 98.21 units
M5

; Path 32/2892 - Power: 70 (100%)
; Travel distance: 100.32 units
G0 X380.2836 Y288.0833 S0 F10000
G1 F8000
M4
G1 X380.6709 Y287.0002 S70
G1 X381.2708 Y285.5835 S70
; Cutting distance: 2.69 units
M5

; Path 33/2892 - Power: 70 (100%)
; Travel distance: 26.52 units
G0 X377.0612 Y259.3988 S0 F10000
G1 F8000
M4
G1 X377.3434 Y264.4376 S70
G1 X377.4598 Y266.1035 S70
G1 X378.2800 Y277.9068 S70
G1 X378.4534 Y280.7052 S70
G1 X378.5344 Y281.5722 S70
G1 X378.7534 Y282.3464 S70
G1 X379.0090 Y283.0383 S70
G1 X379.5090 Y283.8826 S70
G1 X379.8001 Y284.3047 S70
G1 X380.2899 Y284.9060 S70
G1 X380.8354 Y285.3570 S70
G1 X381.2708 Y285.5835 S70
; Cutting distance: 27.23 units
M5

; Path 34/2892 - Power: 70 (100%)
; Travel distance: 132.63 units
G0 X483.8854 Y201.5498 S0 F10000
G1 F8000
M4
G1 X489.3543 Y204.7519 S70
; Cutting distance: 6.34 units
M5

; Path 35/2892 - Power: 70 (100%)
; Travel distance: 0.00 units
G0 X489.3543 Y204.7519 S0 F10000
G1 F8000
M4
G1 X491.2478 Y205.8577 S70
; Cutting distance: 2.19 units
M5

; Path 36/2892 - Power: 70 (100%)
; Travel distance: 2.19 units
G0 X489.3543 Y204.7519 S0 F10000
G1 F8000
M4
G1 X490.2428 Y203.4752 S70
G1 X490.3479 Y203.3228 S70
G1 X490.4238 Y203.1642 S70
G1 X490.7858 Y202.4023 S70
G1 X490.9807 Y201.9946 S70
G1 X492.1629 Y200.0446 S70
G1 X492.2603 Y199.8860 S70
; Cutting distance: 5.68 units
M5

; Path 37/2892 - Power: 70 (100%)
; Travel distance: 11.18 units
G0 X485.8497 Y209.0494 S0 F10000
G1 F8000
M4
G1 X486.0028 Y208.8620 S70
G1 X487.4584 Y207.0849 S70
G1 X487.8963 Y206.6072 S70
G1 X488.0380 Y206.4548 S70
G1 X488.2646 Y206.2077 S70
G1 X488.6013 Y205.7568 S70
G1 X489.3543 Y204.7519 S70
; Cutting distance: 5.55 units
M5

; Path 38/2892 - Power: 70 (100%)
; Travel distance: 258.22 units
G0 X318.1908 Y398.0978 S0 F10000
G1 F8000
M4
G1 X319.1350 Y398.2214 S70
G1 X321.2247 Y398.2708 S70
; Cutting distance: 3.04 units
M5

; Path 39/2892 - Power: 70 (100%)
; Travel distance: 5.62 units
G0 X315.6228 Y398.7197 S0 F10000
G1 F8000
M4
G1 X315.8848 Y398.6703 S70
G1 X317.1542 Y398.4273 S70
G1 X318.1908 Y398.0978 S70
; Cutting distance: 2.65 units
M5

; Path 40/2892 - Power: 70 (100%)
; Travel distance: 28.70 units
G0 X311.5878 Y370.1710 S0 F10000
G1 F8000
M4
G1 X314.7216 Y372.3909 S70
G1 X315.8582 Y373.2578 S70
G1 X316.5847 Y373.9558 S70
G1 X317.2264 Y374.7260 S70
G1 X317.6719 Y375.5311 S70
G1 X318.0681 Y376.7522 S70
G1 X318.3541 Y378.1278 S70
G1 X318.4452 Y379.3468 S70
G1 X318.0921 Y391.6258 S70
G1 X318.0060 Y394.6034 S70
G1 X317.9807 Y396.4649 S70
G1 X318.1908 Y398.0978 S70
; Cutting distance: 30.88 units
M5

; Path 41/2892 - Power: 70 (100%)
; Travel distance: 396.14 units
G0 X97.8812 Y727.3300 S0 F10000
G1 F8000
M4
G1 X102.3693 Y725.4912 S70
; Cutting distance: 4.85 units
M5

; Path 42/2892 - Power: 70 (100%)
; Travel distance: 5.91 units
G0 X96.6282 Y726.8749 S0 F10000
G1 F8000
M4
G1 X97.8812 Y727.3300 S70
; Cutting distance: 1.33 units
M5

; Path 43/2892 - Power: 70 (100%)
; Travel distance: 0.00 units
G0 X97.8812 Y727.3300 S0 F10000
G1 F8000
M4
G1 X103.8375 Y715.7800 S70
G1 X120.7140 Y679.2911 S70
G1 X126.9385 Y667.0821 S70
; Cutting distance: 66.90 units
M5

; Path 44/2892 - Power: 70 (100%)
; Travel distance: 218.04 units
G0 X246.6524 Y484.8476 S0 F10000
G1 F8000
M4
G1 X247.4548 Y485.4303 S70
G1 X249.4002 Y486.8965 S70
G1 X252.2302 Y488.7291 S70
G1 X255.2906 Y490.4712 S70
G1 X257.4941 Y491.5235 S70
G1 X260.4672 Y492.8146 S70
G1 X264.7401 Y494.3755 S70
G1 X270.4825 Y496.4470 S70
G1 X280.3155 Y499.8364 S70
G1 X281.1597 Y500.1350 S70
G1 X282.3495 Y500.5551 S70
G1 X283.5240 Y500.7528 S70
; Cutting distance: 40.41 units
M5

; Path 45/2892 - Power: 70 (100%)
; Travel distance: 54.90 units
G0 X235.1221 Y474.8522 S0 F10000
G1 F8000
M4
G1 X245.5158 Y483.8633 S70
G1 X246.6524 Y484.8476 S70
; Cutting distance: 15.26 units
M5

; Path 46/2892 - Power: 70 (100%)
; Travel distance: 20.28 units
G0 X234.0754 Y500.7548 S0 F10000
G1 F8000
M4
G1 X238.6482 Y495.0035 S70
G1 X246.6524 Y484.8476 S70
; Cutting distance: 20.28 units
M5

; Path 47/2892 - Power: 70 (100%)
; Travel distance: 405.11 units
G0 X118.9002 Y100.4084 S0 F10000
G1 F8000
M4
G1 X122.4340 Y101.6192 S70
; Cutting distance: 3.74 units
M5

; Path 48/2892 - Power: 70 (100%)
; Travel distance: 8.28 units
G0 X114.6045 Y98.9381 S0 F10000
G1 F8000
M4
G1 X118.9002 Y100.4084 S70
; Cutting distance: 4.54 units
M5

; Path 49/2892 - Power: 70 (100%)
; Travel distance: 5.70 units
G0 X116.9131 Y105.7520 S0 F10000
G1 F8000
M4
G1 X117.0081 Y105.4699 S70
G1 X117.7219 Y103.3572 S70
G1 X117.9814 Y102.6570 S70
G1 X118.2016 Y102.1134 S70
G1 X118.2737 Y101.9219 S70
G1 X118.3750 Y101.6769 S70
G1 X118.9002 Y100.4084 S70
; Cutting distance: 5.70 units
M5

; Path 50/2892 - Power: 70 (100%)
; Travel distance: 0.00 units
G0 X118.9002 Y100.4084 S0 F10000
G1 F8000
M4
G1 X119.7077 Y98.4192 S70
G1 X120.4418 Y96.2056 S70
; Cutting distance: 4.48 units
M5

; Path 51/2892 - Power: 70 (100%)
; Travel distance: 10.18 units
G0 X116.9131 Y105.7520 S0 F10000
G1 F8000
M4
G1 X117.0081 Y105.4699 S70
G1 X117.7219 Y103.3572 S70
G1 X117.9814 Y102.6570 S70
G1 X118.2016 Y102.1134 S70
G1 X118.2737 Y101.9219 S70
G1 X118.3750 Y101.6769 S70
G1 X118.9002 Y100.4084 S70
; Cutting distance: 5.70 units
M5

; Path 52/2892 - Power: 70 (100%)
; Travel distance: 5.70 units
G0 X116.9131 Y105.7520 S0 F10000
G1 F8000
M4
G1 X116.4423 Y107.6238 S70
G1 X116.2259 Y108.7831 S70
G1 X116.1892 Y109.3021 S70
G1 X116.2145 Y109.8766 S70
G1 X116.2487 Y110.3872 S70
G1 X116.3689 Y111.0338 S70
G1 X116.6309 Y111.9296 S70
G1 X117.0334 Y112.9262 S70
G1 X117.4966 Y113.7664 S70
G1 X118.1295 Y114.7651 S70
G1 X118.8129 Y115.7597 S70
G1 X120.5431 Y118.2225 S70
G1 X134.5402 Y137.2227 S70
G1 X135.5983 Y138.6435 S70
G1 X138.4790 Y142.5498 S70
G1 X140.1066 Y144.7449 S70
; Cutting distance: 46.70 units
M5

; Path 53/2892 - Power: 70 (100%)
; Travel distance: 308.01 units
G0 X300.4954 Y407.7040 S0 F10000
G1 F8000
M4
G1 X300.7891 Y407.2736 S70
G1 X301.8535 Y405.6592 S70
G1 X303.4888 Y403.2211 S70
G1 X304.4203 Y401.9609 S70
G1 X304.9000 Y401.3658 S70
G1 X305.4961 Y400.7830 S70
; Cutting distance: 8.56 units
M5

; Path 54/2892 - Power: 70 (100%)
; Travel distance: 0.00 units
G0 X305.4961 Y400.7830 S0 F10000
G1 F8000
M4
G1 X306.4023 Y400.2270 S70
G1 X307.2567 Y399.9140 S70
G1 X308.2996 Y399.6793 S70
G1 X309.8513 Y399.4466 S70
G1 X315.6228 Y398.7197 S70
; Cutting distance: 10.43 units
M5

; Path 55/2892 - Power: 70 (100%)
; Travel distance: 24.13 units
G0 X291.4952 Y398.2276 S0 F10000
G1 F8000
M4
G1 X298.4577 Y398.9071 S70
G1 X302.6167 Y399.3395 S70
G1 X303.0420 Y399.4240 S70
G1 X304.0786 Y399.8008 S70
G1 X305.4961 Y400.7830 S70
; Cutting distance: 14.44 units
M5

; Path 56/2892 - Power: 70 (100%)
; Travel distance: 23.36 units
G0 X292.2648 Y420.0303 S0 F10000
G1 F8000
M4
G1 X292.7976 Y419.5526 S70
G1 X293.3456 Y418.9987 S70
; Cutting distance: 1.49 units
M5

; Path 57/2892 - Power: 70 (100%)
; Travel distance: 9.98 units
G0 X285.1884 Y424.7500 S0 F10000
G1 F8000
M4
G1 X286.5718 Y423.6833 S70
G1 X287.6919 Y422.8699 S70
G1 X289.3562 Y421.8053 S70
G1 X291.4408 Y420.5863 S70
G1 X292.2648 Y420.0303 S70
; Cutting distance: 8.52 units
M5

; Path 58/2892 - Power: 70 (100%)
; Travel distance: 0.00 units
G0 X292.2648 Y420.0303 S0 F10000
G1 F8000
M4
G1 X292.7267 Y421.4285 S70
G1 X292.8318 Y421.8898 S70
G1 X292.8862 Y422.5096 S70
G1 X293.0634 Y423.5598 S70
G1 X295.0986 Y429.1834 S70
G1 X296.8009 Y434.3232 S70
G1 X298.3438 Y438.9214 S70
G1 X299.2880 Y441.6745 S70
G1 X299.6487 Y442.7350 S70
G1 X299.8044 Y443.6843 S70
G1 X299.6576 Y444.9466 S70
G1 X299.3956 Y446.7463 S70
G1 X299.0095 Y449.5242 S70
G1 X297.7704 Y456.5975 S70
G1 X297.4186 Y458.5887 S70
G1 X297.3009 Y459.9560 S70
G1 X297.4059 Y461.0000 S70
G1 X297.6527 Y462.4435 S70
G1 X297.9932 Y463.7511 S70
G1 X298.4248 Y464.7581 S70
G1 X298.9728 Y465.5097 S70
G1 X299.7829 Y466.2963 S70
G1 X300.5359 Y466.8667 S70
G1 X305.4657 Y469.7681 S70
G1 X310.5626 Y472.6180 S70
G1 X312.3092 Y473.6785 S70
G1 X313.4066 Y474.4610 S70
G1 X314.5685 Y475.3732 S70
G1 X318.1086 Y478.3467 S70
G1 X324.7407 Y483.6965 S70
; Cutting distance: 78.88 units
M5

; Path 59/2892 - Power: 70 (100%)
; Travel distance: 71.91 units
G0 X293.3456 Y418.9987 S0 F10000
G1 F8000
M4
G1 X294.3126 Y417.5490 S70
G1 X295.2150 Y416.1076 S70
G1 X300.4954 Y407.7040 S70
; Cutting distance: 13.37 units
M5

; Path 60/2892 - Power: 70 (100%)
; Travel distance: 14.82 units
G0 X292.2648 Y420.0303 S0 F10000
G1 F8000
M4
G1 X292.7976 Y419.5526 S70
G1 X293.3456 Y418.9987 S70
; Cutting distance: 1.49 units
M5

; Path 61/2892 - Power: 70 (100%)
; Travel distance: 0.00 units
G0 X293.3456 Y418.9987 S0 F10000
G1 F8000
M4
G1 X294.6341 Y419.7667 S70
G1 X295.2125 Y420.0550 S70
G1 X295.8200 Y420.2404 S70
G1 X297.1857 Y420.4524 S70
G1 X299.7107 Y420.7037 S70
G1 X301.0422 Y420.9364 S70
G1 X302.2611 Y421.2679 S70
G1 X303.6318 Y421.7292 S70
G1 X304.7658 Y422.2110 S70
G1 X309.8450 Y424.7232 S70
G1 X316.5252 Y428.0550 S70
; Cutting distance: 25.13 units
M5

; Path 62/2892 - Power: 70 (100%)
; Travel distance: 41.89 units
G0 X276.8716 Y441.5736 S0 F10000
G1 F8000
M4
G1 X277.0425 Y440.9641 S70
; Cutting distance: 0.63 units
M5

; Path 63/2892 - Power: 70 (100%)
; Travel distance: 7.97 units
G0 X272.9392 Y447.7985 S0 F10000
G1 F8000
M4
G1 X276.8716 Y441.5736 S70
; Cutting distance: 7.36 units
M5

; Path 64/2892 - Power: 70 (100%)
; Travel distance: 7.36 units
G0 X272.9392 Y447.7985 S0 F10000
G1 F8000
M4
G1 X273.7770 Y447.5803 S70
G1 X274.2428 Y447.5411 S70
G1 X274.7719 Y447.7162 S70
G1 X275.8692 Y448.4678 S70
; Cutting distance: 3.22 units
M5

; Path 65/2892 - Power: 70 (100%)
; Travel distance: 0.00 units
G0 X275.8692 Y448.4678 S0 F10000
G1 F8000
M4
G1 X275.9869 Y446.7031 S70
G1 X276.0894 Y446.1100 S70
G1 X276.3793 Y444.4379 S70
G1 X276.5957 Y443.2045 S70
G1 X276.8716 Y441.5736 S70
; Cutting distance: 6.97 units
M5

; Path 66/2892 - Power: 70 (100%)
; Travel distance: 6.97 units
G0 X275.8692 Y448.4678 S0 F10000
G1 F8000
M4
G1 X276.0363 Y450.4075 S70
G1 X276.2704 Y451.8263 S70
G1 X276.5577 Y453.0618 S70
G1 X277.3855 Y455.7820 S70
G1 X278.7334 Y460.4070 S70
G1 X279.9130 Y464.2186 S70
G1 X280.1636 Y464.9784 S70
G1 X280.3661 Y465.7794 S70
; Cutting distance: 17.93 units
M5

; Path 67/2892 - Power: 70 (100%)
; Travel distance: 35.12 units
G0 X283.5240 Y500.7528 S0 F10000
G1 F8000
M4
G1 X284.6087 Y501.4900 S70
G1 X288.3019 Y503.1620 S70
G1 X289.4486 Y503.4853 S70
G1 X290.0068 Y503.6315 S70
; Cutting distance: 7.13 units
M5

; Path 68/2892 - Power: 70 (100%)
; Travel distance: 7.09 units
G0 X283.5240 Y500.7528 S0 F10000
G1 F8000
M4
G1 X284.3353 Y500.5489 S70
G1 X284.8314 Y500.2833 S70
G1 X285.2997 Y499.7191 S70
G1 X285.5605 Y499.3010 S70
G1 X285.7187 Y498.8171 S70
G1 X285.8440 Y497.7999 S70
; Cutting distance: 4.16 units
M5

; Path 69/2892 - Power: 70 (100%)
; Travel distance: 32.49 units
G0 X280.3661 Y465.7794 S0 F10000
G1 F8000
M4
G1 X280.4573 Y467.4391 S70
G1 X280.4585 Y476.0630 S70
G1 X280.5598 Y479.5266 S70
G1 X280.7028 Y482.3312 S70
G1 X280.9117 Y483.9477 S70
G1 X281.2483 Y485.4488 S70
G1 X281.7660 Y487.1353 S70
G1 X283.4949 Y492.8187 S70
G1 X284.1087 Y494.4722 S70
G1 X284.7517 Y495.7036 S70
; Cutting distance: 30.59 units
M5

; Path 70/2892 - Power: 70 (100%)
; Travel distance: 0.00 units
G0 X284.7517 Y495.7036 S0 F10000
G1 F8000
M4
G1 X285.9579 Y494.8697 S70
G1 X286.9312 Y494.1984 S70
G1 X290.6067 Y491.8632 S70
; Cutting distance: 7.00 units
M5

; Path 71/2892 - Power: 70 (100%)
; Travel distance: 98.13 units
G0 X206.3609 Y542.1899 S0 F10000
G1 F8000
M4
G1 X213.5892 Y530.5864 S70
; Cutting distance: 13.67 units
M5

; Path 72/2892 - Power: 70 (100%)
; Travel distance: 22.43 units
G0 X201.8095 Y549.6710 S0 F10000
G1 F8000
M4
G1 X201.9374 Y549.4651 S70
G1 X202.0285 Y549.3209 S70
G1 X205.5686 Y543.4481 S70
G1 X206.3609 Y542.1899 S70
; Cutting distance: 8.76 units
M5

; Path 73/2892 - Power: 70 (100%)
; Travel distance: 75.91 units
G0 X200.9666 Y617.9044 S0 F10000
G1 F8000
M4
G1 X204.8332 Y601.5256 S70
G1 X208.0923 Y590.9331 S70
G1 X210.5364 Y577.8922 S70
G1 X214.0663 Y566.7561 S70
G1 X214.8814 Y560.2367 S70
G1 X212.1653 Y552.3603 S70
G1 X208.7847 Y544.6218 S70
G1 X206.3609 Y542.1899 S70
; Cutting distance: 79.64 units
M5

; Path 74/2892 - Power: 70 (100%)
; Travel distance: 79.27 units
G0 X164.5443 Y609.5318 S0 F10000
G1 F8000
M4
G1 X170.6752 Y600.3663 S70
; Cutting distance: 11.03 units
M5

; Path 75/2892 - Power: 70 (100%)
; Travel distance: 0.00 units
G0 X170.6752 Y600.3663 S0 F10000
G1 F8000
M4
G1 X185.4621 Y615.3552 S70
G1 X187.9390 Y617.0828 S70
G1 X191.7664 Y617.3073 S70
G1 X200.9666 Y617.9044 S70
; Cutting distance: 37.13 units
M5

; Path 76/2892 - Power: 70 (100%)
; Travel distance: 35.00 units
G0 X170.6752 Y600.3663 S0 F10000
G1 F8000
M4
G1 X171.6169 Y598.9125 S70
G1 X175.1759 Y593.1468 S70
G1 X182.0017 Y581.9859 S70
G1 X186.5632 Y574.4760 S70
; Cutting distance: 30.38 units
M5

; Path 77/2892 - Power: 70 (100%)
; Travel distance: 110.40 units
G0 X126.0260 Y666.7938 S0 F10000
G1 F8000
M4
G1 X126.9385 Y667.0821 S70
; Cutting distance: 0.96 units
M5

; Path 78/2892 - Power: 70 (100%)
; Travel distance: 66.89 units
G0 X97.8812 Y727.3300 S0 F10000
G1 F8000
M4
G1 X103.8375 Y715.7800 S70
G1 X120.7140 Y679.2911 S70
G1 X126.9385 Y667.0821 S70
; Cutting distance: 66.90 units
M5

; Path 79/2892 - Power: 70 (100%)
; Travel distance: 0.00 units
G0 X126.9385 Y667.0821 S0 F10000
G1 F8000
M4
G1 X131.7772 Y660.0108 S70
G1 X135.7730 Y654.0165 S70
G1 X164.5443 Y609.5318 S70
; Cutting distance: 68.75 units
M5

; Path 80/2892 - Power: 70 (100%)
; Travel distance: 484.21 units
G0 X634.4741 Y726.2737 S0 F10000
G1 F8000
M4
G1 X634.9892 Y726.7164 S70
; Cutting distance: 0.68 units
M5

; Path 81/2892 - Power: 70 (100%)
; Travel distance: 0.68 units
G0 X634.4741 Y726.2737 S0 F10000
G1 F8000
M4
G1 X635.7283 Y724.8281 S70
; Cutting distance: 1.91 units
M5

; Path 82/2892 - Power: 70 (100%)
; Travel distance: 18.58 units
G0 X622.8653 Y738.2417 S0 F10000
G1 F8000
M4
G1 X624.9802 Y736.1084 S70
G1 X634.4741 Y726.2737 S70
; Cutting distance: 16.67 units
M5

; Path 83/2892 - Power: 70 (100%)
; Travel distance: 620.94 units
G0 X378.2623 Y160.6604 S0 F10000
G1 F8000
M4
G1 X382.8010 Y161.7271 S70
; Cutting distance: 4.66 units
M5

; Path 84/2892 - Power: 70 (100%)
; Travel distance: 0.00 units
G0 X382.8010 Y161.7271 S0 F10000
G1 F8000
M4
G1 X383.0693 Y159.9912 S70
G1 X383.1212 Y159.6102 S70
G1 X383.2275 Y158.6486 S70
G1 X383.4680 Y156.4370 S70
G1 X383.4958 Y156.1981 S70
G1 X383.7300 Y151.3570 S70
G1 X384.0856 Y145.1217 S70
G1 X384.2717 Y141.8538 S70
; Cutting distance: 19.94 units
M5

; Path 85/2892 - Power: 70 (100%)
; Travel distance: 19.93 units
G0 X382.8010 Y161.7271 S0 F10000
G1 F8000
M4
G1 X387.2511 Y162.8040 S70
G1 X391.8835 Y163.9840 S70
G1 X398.2448 Y165.7322 S70
G1 X405.6831 Y167.6349 S70
G1 X411.0420 Y169.3090 S70
G1 X417.0679 Y171.2653 S70
G1 X425.3871 Y174.1728 S70
G1 X430.8422 Y176.2362 S70
G1 X438.1603 Y179.1396 S70
G1 X446.1100 Y182.4467 S70
G1 X449.9286 Y184.1023 S70
G1 X455.8342 Y186.7854 S70
G1 X459.6034 Y188.5563 S70
G1 X463.3599 Y190.3684 S70
G1 X467.5151 Y192.5264 S70
G1 X472.8613 Y195.4773 S70
G1 X476.8849 Y197.6662 S70
G1 X483.8854 Y201.5498 S70
; Cutting distance: 109.07 units
M5

; Path 86/2892 - Power: 70 (100%)
; Travel distance: 104.13 units
G0 X381.8087 Y180.9908 S0 F10000
G1 F8000
M4
G1 X382.0378 Y176.0282 S70
G1 X382.1935 Y172.6511 S70
G1 X382.2770 Y167.2684 S70
G1 X382.2871 Y167.0316 S70
G1 X382.4036 Y164.3464 S70
G1 X382.4529 Y163.6668 S70
G1 X382.4669 Y163.4959 S70
G1 X382.8010 Y161.7271 S70
; Cutting distance: 19.31 units
M5

; Path 87/2892 - Power: 70 (100%)
; Travel distance: 95.61 units
G0 X376.9941 Y257.1625 S0 F10000
G1 F8000
M4
G1 X377.0612 Y259.3988 S70
; Cutting distance: 2.24 units
M5

; Path 88/2892 - Power: 70 (100%)
; Travel distance: 41.74 units
G0 X340.9818 Y238.4135 S0 F10000
G1 F8000
M4
G1 X346.8090 Y246.1149 S70
G1 X349.2404 Y251.1290 S70
G1 X352.1286 Y255.2330 S70
G1 X355.8776 Y256.3985 S70
G1 X360.2454 Y256.8268 S70
G1 X360.6428 Y256.7939 S70
G1 X365.7068 Y256.9545 S70
G1 X369.3747 Y256.8989 S70
G1 X376.9941 Y257.1625 S70
; Cutting distance: 45.32 units
M5

; Path 89/2892 - Power: 70 (100%)
; Travel distance: 0.00 units
G0 X376.9941 Y257.1625 S0 F10000
G1 F8000
M4
G1 X377.0371 Y253.2397 S70
G1 X377.1472 Y249.6917 S70
G1 X377.6548 Y242.3857 S70
; Cutting distance: 14.80 units
M5

; Path 90/2892 - Power: 70 (100%)
; Travel distance: 0.80 units
G0 X376.8549 Y242.3651 S0 F10000
G1 F8000
M4
G1 X376.4802 Y248.1926 S70
G1 X376.2650 Y251.9857 S70
G1 X376.1764 Y255.9620 S70
G1 X376.9941 Y257.1625 S70
; Cutting distance: 15.07 units
M5

; Path 91/2892 - Power: 70 (100%)
; Travel distance: 295.26 units
G0 X226.1712 Y510.9973 S0 F10000
G1 F8000
M4
G1 X231.7769 Y503.6707 S70
; Cutting distance: 9.23 units
M5

; Path 92/2892 - Power: 70 (100%)
; Travel distance: 13.29 units
G0 X223.8449 Y514.3311 S0 F10000
G1 F8000
M4
G1 X226.1712 Y510.9973 S70
; Cutting distance: 4.07 units
M5

; Path 93/2892 - Power: 70 (100%)
; Travel distance: 15.89 units
G0 X213.4816 Y501.4385 S0 F10000
G1 F8000
M4
G1 X224.2259 Y509.5002 S70
G1 X225.1916 Y510.2251 S70
G1 X226.1712 Y510.9973 S70
; Cutting distance: 15.89 units
M5

; Path 94/2892 - Power: 70 (100%)
; Travel distance: 15.89 units
G0 X213.4816 Y501.4385 S0 F10000
G1 F8000
M4
G1 X227.0028 Y484.4481 S70
; Cutting distance: 21.71 units
M5

; Path 95/2892 - Power: 70 (100%)
; Travel distance: 21.71 units
G0 X213.4816 Y501.4385 S0 F10000
G1 F8000
M4
G1 X224.2259 Y509.5002 S70
G1 X225.1916 Y510.2251 S70
G1 X226.1712 Y510.9973 S70
; Cutting distance: 15.89 units
M5

; Path 96/2892 - Power: 70 (100%)
; Travel distance: 23.60 units
G0 X205.5926 Y499.4370 S0 F10000
G1 F8000
M4
G1 X211.2628 Y500.5077 S70
G1 X212.3627 Y500.8578 S70
G1 X213.4816 Y501.4385 S70
; Cutting distance: 8.19 units
M5

; Path 97/2892 - Power: 70 (100%)
; Travel distance: 86.98 units
G0 X264.7262 Y431.1582 S0 F10000
G1 F8000
M4
G1 X266.4868 Y431.4259 S70
; Cutting distance: 1.78 units
M5

; Path 98/2892 - Power: 70 (100%)
; Travel distance: 14.81 units
G0 X251.8303 Y429.2740 S0 F10000
G1 F8000
M4
G1 X258.4282 Y430.1801 S70
G1 X264.7262 Y431.1582 S70
; Cutting distance: 13.03 units
M5

; Path 99/2892 - Power: 70 (100%)
; Travel distance: 35.31 units
G0 X245.4690 Y460.7529 S0 F10000
G1 F8000
M4
G1 X256.4082 Y447.0861 S70
G1 X260.7697 Y439.9551 S70
G1 X264.7262 Y431.1582 S70
; Cutting distance: 35.51 units
M5

; Path 100/2892 - Power: 70 (100%)
; Travel distance: 14.81 units
G0 X278.1272 Y437.4552 S0 F10000
G1 F8000
M4
G1 X279.0764 Y434.0575 S70
; Cutting distance: 3.53 units
M5

; Path 101/2892 - Power: 70 (100%)
; Travel distance: 0.00 units
G0 X279.0764 Y434.0575 S0 F10000
G1 F8000
M4
G1 X279.8320 Y431.9942 S70
G1 X280.5914 Y430.3325 S70
G1 X281.3116 Y428.9631 S70
G1 X282.1381 Y427.7729 S70
G1 X283.0582 Y426.7042 S70
G1 X284.0733 Y425.7178 S70
G1 X285.1884 Y424.7500 S70
; Cutting distance: 11.32 units
M5

; Path 102/2892 - Power: 70 (100%)
; Travel distance: 14.28 units
G0 X273.7214 Y433.2648 S0 F10000
G1 F8000
M4
G1 X276.5704 Y433.6869 S70
G1 X279.0764 Y434.0575 S70
; Cutting distance: 5.41 units
M5

; Path 103/2892 - Power: 70 (100%)
; Travel distance: 0.00 units
G0 X279.0764 Y434.0575 S0 F10000
G1 F8000
M4
G1 X280.0358 Y434.4406 S70
G1 X280.0852 Y434.4611 S70
G1 X281.6293 Y435.0768 S70
G1 X282.3533 Y435.4043 S70
G1 X282.9557 Y435.3445 S70
G1 X283.6430 Y435.1242 S70
G1 X285.1972 Y434.3767 S70
G1 X285.8149 Y433.9113 S70
; Cutting distance: 7.37 units
M5

; Path 104/2892 - Power: 70 (100%)
; Travel distance: 65.16 units
G0 X235.1221 Y474.8522 S0 F10000
G1 F8000
M4
G1 X245.4690 Y460.7529 S70
; Cutting distance: 17.49 units
M5

; Path 105/2892 - Power: 70 (100%)
; Travel distance: 30.04 units
G0 X227.0028 Y484.4481 S0 F10000
G1 F8000
M4
G1 X235.1221 Y474.8522 S70
; Cutting distance: 12.57 units
M5

; Path 106/2892 - Power: 70 (100%)
; Travel distance: 0.00 units
G0 X235.1221 Y474.8522 S0 F10000
G1 F8000
M4
G1 X245.5158 Y483.8633 S70
G1 X246.6524 Y484.8476 S70
; Cutting distance: 15.26 units
M5

; Path 107/2892 - Power: 70 (100%)
; Travel distance: 143.51 units
G0 X291.9116 Y348.6587 S0 F10000
G1 F8000
M4
G1 X293.5076 Y350.7631 S70
; Cutting distance: 2.64 units
M5

; Path 108/2892 - Power: 70 (100%)
; Travel distance: 0.00 units
G0 X293.5076 Y350.7631 S0 F10000
G1 F8000
M4
G1 X299.9601 Y359.1214 S70
G1 X302.2269 Y361.8087 S70
G1 X304.3988 Y364.1912 S70
G1 X305.5303 Y365.3793 S70
G1 X306.6795 Y366.3965 S70
; Cutting distance: 20.47 units
M5

; Path 109/2892 - Power: 70 (100%)
; Travel distance: 20.44 units
G0 X291.1775 Y353.0756 S0 F10000
G1 F8000
M4
G1 X291.5851 Y352.6700 S70
G1 X293.5076 Y350.7631 S70
; Cutting distance: 3.28 units
M5

; Path 110/2892 - Power: 70 (100%)
; Travel distance: 20.99 units
G0 X281.2217 Y367.7844 S0 F10000
G1 F8000
M4
G1 X281.9052 Y366.1494 S70
G1 X282.2178 Y365.4781 S70
G1 X282.7127 Y364.5289 S70
G1 X283.4506 Y363.0957 S70
; Cutting distance: 5.20 units
M5

; Path 111/2892 - Power: 70 (100%)
; Travel distance: 0.00 units
G0 X283.4506 Y363.0957 S0 F10000
G1 F8000
M4
G1 X284.4214 Y361.4936 S70
G1 X285.5364 Y359.8936 S70
G1 X286.8755 Y358.1186 S70
G1 X288.3905 Y356.3477 S70
; Cutting distance: 8.38 units
M5

; Path 112/2892 - Power: 70 (100%)
; Travel distance: 8.36 units
G0 X283.4506 Y363.0957 S0 F10000
G1 F8000
M4
G1 X284.8251 Y364.1129 S70
G1 X287.0730 Y365.7850 S70
G1 X287.6083 Y366.4707 S70
; Cutting distance: 5.38 units
M5

; Path 113/2892 - Power: 70 (100%)
; Travel distance: 29.05 units
G0 X277.0222 Y393.5244 S0 F10000
G1 F8000
M4
G1 X277.2488 Y391.1439 S70
G1 X278.0259 Y382.9854 S70
G1 X278.5183 Y377.8251 S70
; Cutting distance: 15.77 units
M5

; Path 114/2892 - Power: 70 (100%)
; Travel distance: 15.77 units
G0 X277.0222 Y393.5244 S0 F10000
G1 F8000
M4
G1 X277.8778 Y394.8649 S70
G1 X278.9904 Y395.7442 S70
G1 X280.0675 Y396.3908 S70
G1 X281.7964 Y396.8005 S70
G1 X283.3949 Y397.0497 S70
G1 X288.2513 Y397.5048 S70
G1 X288.9841 Y397.7066 S70
G1 X289.6461 Y397.8631 S70
G1 X290.4283 Y398.1184 S70
G1 X291.4952 Y398.2276 S70
; Cutting distance: 15.87 units
M5

; Path 115/2892 - Power: 70 (100%)
; Travel distance: 25.34 units
G0 X266.9070 Y392.1015 S0 F10000
G1 F8000
M4
G1 X267.5398 Y392.3506 S70
G1 X272.5012 Y394.1936 S70
G1 X273.4733 Y394.4551 S70
G1 X274.5618 Y394.4057 S70
G1 X275.4958 Y394.1751 S70
G1 X277.0222 Y393.5244 S70
; Cutting distance: 10.69 units
M5

; Path 116/2892 - Power: 70 (100%)
; Travel distance: 193.12 units
G0 X469.7389 Y406.0237 S0 F10000
G1 F8000
M4
G1 X470.7046 Y405.3359 S70
; Cutting distance: 1.19 units
M5

; Path 117/2892 - Power: 70 (100%)
; Travel distance: 45.55 units
G0 X426.3693 Y394.8690 S0 F10000
G1 F8000
M4
G1 X429.0880 Y395.7112 S70
G1 X431.9028 Y396.6894 S70
G1 X434.2431 Y397.5089 S70
G1 X436.1264 Y397.9681 S70
G1 X441.5523 Y399.0801 S70
G1 X442.8750 Y399.4054 S70
G1 X443.9128 Y399.5352 S70
G1 X445.6114 Y399.6381 S70
G1 X452.5916 Y399.4507 S70
G1 X460.6400 Y399.1171 S70
G1 X461.9272 Y398.9030 S70
G1 X464.0801 Y398.4582 S70
G1 X467.4670 Y397.4307 S70
G1 X467.8037 Y397.4307 S70
G1 X468.1492 Y397.5995 S70
G1 X468.3378 Y397.9310 S70
G1 X469.3225 Y403.9562 S70
G1 X469.4427 Y404.6934 S70
G1 X469.7389 Y406.0237 S70
; Cutting distance: 51.29 units
M5

; Path 118/2892 - Power: 70 (100%)
; Travel distance: 31.97 units
G0 X440.5664 Y419.0934 S0 F10000
G1 F8000
M4
G1 X442.6383 Y419.2478 S70
G1 X444.1191 Y419.3322 S70
G1 X445.5329 Y419.2684 S70
G1 X447.0175 Y419.0522 S70
G1 X448.5351 Y418.5559 S70
G1 X450.0362 Y417.9546 S70
G1 X451.5094 Y417.2175 S70
G1 X452.9396 Y416.4535 S70
G1 X458.4301 Y413.0517 S70
G1 X464.9990 Y408.9560 S70
G1 X468.4884 Y406.7979 S70
G1 X469.7389 Y406.0237 S70
; Cutting distance: 32.73 units
M5

; Path 119/2892 - Power: 70 (100%)
; Travel distance: 102.36 units
G0 X369.1469 Y387.0709 S0 F10000
G1 F8000
M4
G1 X370.5239 Y387.5712 S70
G1 X376.8916 Y387.9398 S70
G1 X379.4799 Y388.1663 S70
G1 X381.6024 Y388.3352 S70
G1 X383.9072 Y388.6544 S70
G1 X386.3487 Y389.0086 S70
G1 X388.4864 Y389.3607 S70
G1 X390.7368 Y389.7952 S70
G1 X405.6325 Y391.7638 S70
G1 X411.3799 Y392.5318 S70
G1 X417.0755 Y393.2361 S70
; Cutting distance: 48.39 units
M5

; Path 120/2892 - Power: 70 (100%)
; Travel distance: 0.00 units
G0 X417.0755 Y393.2361 S0 F10000
G1 F8000
M4
G1 X421.6762 Y393.8497 S70
G1 X423.5874 Y394.1710 S70
G1 X424.8707 Y394.4675 S70
G1 X426.3693 Y394.8690 S70
; Cutting distance: 9.45 units
M5

; Path 121/2892 - Power: 70 (100%)
; Travel distance: 9.44 units
G0 X417.0755 Y393.2361 S0 F10000
G1 F8000
M4
G1 X417.2311 Y391.6011 S70
G1 X417.6969 Y383.5002 S70
G1 X419.0271 Y364.8419 S70
; Cutting distance: 28.46 units
M5

; Path 122/2892 - Power: 70 (100%)
; Travel distance: 140.76 units
G0 X281.5040 Y334.8167 S0 F10000
G1 F8000
M4
G1 X285.3529 Y339.9812 S70
; Cutting distance: 6.44 units
M5

; Path 123/2892 - Power: 70 (100%)
; Travel distance: 11.79 units
G0 X278.3044 Y330.5357 S0 F10000
G1 F8000
M4
G1 X279.7903 Y332.5331 S70
G1 X281.5040 Y334.8167 S70
; Cutting distance: 5.34 units
M5

; Path 124/2892 - Power: 70 (100%)
; Travel distance: 0.00 units
G0 X281.5040 Y334.8167 S0 F10000
G1 F8000
M4
G1 X282.9671 Y333.7480 S70
G1 X283.9607 Y333.0232 S70
; Cutting distance: 3.04 units
M5

; Path 125/2892 - Power: 70 (100%)
; Travel distance: 34.35 units
G0 X308.8970 Y309.3960 S0 F10000
G1 F8000
M4
G1 X316.8429 Y295.7229 S70
; Cutting distance: 15.81 units
M5

; Path 126/2892 - Power: 70 (100%)
; Travel distance: 20.06 units
G0 X305.8416 Y312.4930 S0 F10000
G1 F8000
M4
G1 X307.2326 Y310.9569 S70
G1 X308.1971 Y310.1600 S70
G1 X308.8970 Y309.3960 S70
; Cutting distance: 4.36 units
M5

; Path 127/2892 - Power: 70 (100%)
; Travel distance: 0.00 units
G0 X308.8970 Y309.3960 S0 F10000
G1 F8000
M4
G1 X315.4013 Y312.8575 S70
G1 X321.5398 Y315.7198 S70
; Cutting distance: 14.14 units
M5

; Path 128/2892 - Power: 70 (100%)
; Travel distance: 37.79 units
G0 X358.2127 Y324.8544 S0 F10000
G1 F8000
M4
G1 X359.5455 Y314.1301 S70
; Cutting distance: 10.81 units
M5

; Path 129/2892 - Power: 70 (100%)
; Travel distance: 10.81 units
G0 X358.2127 Y324.8544 S0 F10000
G1 F8000
M4
G1 X369.0975 Y325.8798 S70
G1 X373.4072 Y326.2917 S70
G1 X376.8473 Y326.6212 S70
G1 X378.6331 Y326.6829 S70
; Cutting distance: 20.51 units
M5

; Path 130/2892 - Power: 70 (100%)
; Travel distance: 26.91 units
G0 X351.8451 Y324.1357 S0 F10000
G1 F8000
M4
G1 X353.2551 Y324.3396 S70
G1 X358.2127 Y324.8544 S70
; Cutting distance: 6.41 units
M5

; Path 131/2892 - Power: 70 (100%)
; Travel distance: 20.50 units
G0 X378.6331 Y326.6829 S0 F10000
G1 F8000
M4
G1 X378.7141 Y323.9710 S70
G1 X378.9369 Y316.5455 S70
G1 X379.1913 Y308.0163 S70
G1 X379.2660 Y305.5247 S70
; Cutting distance: 21.17 units
M5

; Path 132/2892 - Power: 70 (100%)
; Travel distance: 39.40 units
G0 X377.5193 Y344.8862 S0 F10000
G1 F8000
M4
G1 X377.9686 Y339.9606 S70
G1 X378.1408 Y337.5061 S70
G1 X378.3040 Y335.1627 S70
G1 X378.6331 Y326.6829 S70
; Cutting distance: 18.24 units
M5

; Path 133/2892 - Power: 70 (100%)
; Travel distance: 0.00 units
G0 X378.6331 Y326.6829 S0 F10000
G1 F8000
M4
G1 X379.7988 Y326.2031 S70
G1 X384.6742 Y322.0600 S70
; Cutting distance: 7.66 units
M5

; Path 134/2892 - Power: 70 (100%)
; Travel distance: 26.61 units
G0 X358.2127 Y324.8544 S0 F10000
G1 F8000
M4
G1 X369.0975 Y325.8798 S70
G1 X373.4072 Y326.2917 S70
G1 X376.8473 Y326.6212 S70
G1 X378.6331 Y326.6829 S70
; Cutting distance: 20.51 units
M5

; Path 135/2892 - Power: 70 (100%)
; Travel distance: 68.34 units
G0 X318.9528 Y293.3858 S0 F10000
G1 F8000
M4
G1 X319.6945 Y293.2210 S70
G1 X320.6589 Y293.3837 S70
G1 X321.8157 Y293.6267 S70
G1 X322.0777 Y293.6823 S70
; Cutting distance: 3.19 units
M5

; Path 136/2892 - Power: 70 (100%)
; Travel distance: 5.62 units
G0 X316.8429 Y295.7229 S0 F10000
G1 F8000
M4
G1 X317.7504 Y294.4112 S70
G1 X318.3313 Y293.8038 S70
G1 X318.9528 Y293.3858 S70
; Cutting distance: 3.18 units
M5

; Path 137/2892 - Power: 70 (100%)
; Travel distance: 7.59 units
G0 X315.3279 Y286.7160 S0 F10000
G1 F8000
M4
G1 X317.3327 Y287.6386 S70
G1 X318.7072 Y288.3325 S70
G1 X320.0185 Y289.4280 S70
G1 X319.7957 Y291.0197 S70
G1 X318.9528 Y293.3858 S70
; Cutting distance: 9.57 units
M5

; Path 138/2892 - Power: 70 (100%)
; Travel distance: 302.19 units
G0 X35.9657 Y399.4013 S0 F10000
G1 F8000
M4
G1 X42.4358 Y380.0469 S70
; Cutting distance: 20.41 units
M5

; Path 139/2892 - Power: 70 (100%)
; Travel distance: 56.99 units
G0 X25.8099 Y434.5538 S0 F10000
G1 F8000
M4
G1 X26.5971 Y428.0529 S70
G1 X29.6854 Y415.1871 S70
G1 X35.9657 Y399.4013 S70
; Cutting distance: 36.77 units
M5

; Path 140/2892 - Power: 70 (100%)
; Travel distance: 0.00 units
G0 X35.9657 Y399.4013 S0 F10000
G1 F8000
M4
G1 X38.5983 Y399.7699 S70
G1 X55.1001 Y398.4603 S70
G1 X63.2941 Y397.9743 S70
G1 X72.0045 Y399.9491 S70
G1 X106.8396 Y408.7500 S70
G1 X115.2589 Y411.2623 S70
G1 X120.5127 Y412.8108 S70
; Cutting distance: 86.54 units
M5

; Path 141/2892 - Power: 70 (100%)
; Travel distance: 97.17 units
G0 X25.8099 Y434.5538 S0 F10000
G1 F8000
M4
G1 X57.4442 Y440.3752 S70
G1 X93.2298 Y443.1612 S70
G1 X99.4405 Y436.3330 S70
G1 X102.7566 Y434.3767 S70
G1 X111.5910 Y432.7088 S70
G1 X119.8786 Y414.1801 S70
G1 X120.5127 Y412.8108 S70
; Cutting distance: 111.94 units
M5

; Path 142/2892 - Power: 70 (100%)
; Travel distance: 97.17 units
G0 X25.8099 Y434.5538 S0 F10000
G1 F8000
M4
G1 X26.5971 Y428.0529 S70
G1 X29.6854 Y415.1871 S70
G1 X35.9657 Y399.4013 S70
; Cutting distance: 36.77 units
M5

; Path 143/2892 - Power: 70 (100%)
; Travel distance: 125.48 units
G0 X160.5131 Y414.6888 S0 F10000
G1 F8000
M4
G1 X164.4038 Y407.2715 S70
; Cutting distance: 8.38 units
M5

; Path 144/2892 - Power: 70 (100%)
; Travel distance: 13.48 units
G0 X151.2003 Y409.9959 S0 F10000
G1 F8000
M4
G1 X160.5131 Y414.6888 S70
; Cutting distance: 10.43 units
M5

; Path 145/2892 - Power: 70 (100%)
; Travel distance: 0.00 units
G0 X160.5131 Y414.6888 S0 F10000
G1 F8000
M4
G1 X174.4925 Y422.3263 S70
; Cutting distance: 15.93 units
M5

; Path 146/2892 - Power: 70 (100%)
; Travel distance: 54.97 units
G0 X222.8349 Y396.1581 S0 F10000
G1 F8000
M4
G1 X229.7404 Y386.7743 S70
G1 X230.7631 Y385.5120 S70
; Cutting distance: 13.28 units
M5

; Path 147/2892 - Power: 70 (100%)
; Travel distance: 0.00 units
G0 X230.7631 Y385.5120 S0 F10000
G1 F8000
M4
G1 X232.2794 Y387.1965 S70
G1 X233.5438 Y388.6029 S70
G1 X236.8890 Y392.4330 S70
G1 X239.2861 Y395.0955 S70
G1 X245.1032 Y401.6644 S70
G1 X246.6726 Y403.4373 S70
G1 X248.2079 Y404.8088 S70
G1 X249.8166 Y405.9351 S70
G1 X255.2400 Y409.3040 S70
G1 X259.2294 Y411.8203 S70
G1 X263.4074 Y414.4973 S70
G1 X266.7450 Y416.2949 S70
G1 X268.9080 Y417.4110 S70
G1 X271.1786 Y418.4921 S70
G1 X277.5766 Y420.9364 S70
; Cutting distance: 59.64 units
M5

; Path 148/2892 - Power: 70 (100%)
; Travel distance: 61.53 units
G0 X229.1329 Y383.0081 S0 F10000
G1 F8000
M4
G1 X229.9556 Y384.1777 S70
G1 X230.7631 Y385.5120 S70
; Cutting distance: 2.99 units
M5

; Path 149/2892 - Power: 70 (100%)
; Travel distance: 20.95 units
G0 X218.2684 Y402.3254 S0 F10000
G1 F8000
M4
G1 X222.8349 Y396.1581 S70
; Cutting distance: 7.67 units
M5

; Path 150/2892 - Power: 70 (100%)
; Travel distance: 15.05 units
G0 X213.7980 Y408.1899 S0 F10000
G1 F8000
M4
G1 X215.8332 Y405.7169 S70
G1 X218.2684 Y402.3254 S70
; Cutting distance: 7.38 units
M5

; Path 151/2892 - Power: 70 (100%)
; Travel distance: 17.62 units
G0 X207.0140 Y388.7717 S0 F10000
G1 F8000
M4
G1 X207.8746 Y389.7643 S70
G1 X217.3406 Y401.4049 S70
G1 X218.2684 Y402.3254 S70
; Cutting distance: 17.62 units
M5

; Path 152/2892 - Power: 70 (100%)
; Travel distance: 39.72 units
G0 X190.9260 Y431.1376 S0 F10000
G1 F8000
M4
G1 X205.2230 Y438.6063 S70
; Cutting distance: 16.13 units
M5

; Path 153/2892 - Power: 70 (100%)
; Travel distance: 33.80 units
G0 X184.3065 Y465.1534 S0 F10000
G1 F8000
M4
G1 X184.7976 Y463.2940 S70
G1 X185.0963 Y461.8155 S70
G1 X185.7317 Y458.1563 S70
G1 X187.1859 Y447.8974 S70
G1 X187.6036 Y445.1134 S70
G1 X188.1048 Y442.0946 S70
G1 X188.6301 Y439.3991 S70
G1 X189.3844 Y436.1497 S70
G1 X190.1489 Y433.2915 S70
G1 X190.9260 Y431.1376 S70
; Cutting distance: 34.71 units
M5

; Path 154/2892 - Power: 70 (100%)
; Travel distance: 0.00 units
G0 X190.9260 Y431.1376 S0 F10000
G1 F8000
M4
G1 X191.6386 Y429.7209 S70
G1 X195.0382 Y424.2620 S70
G1 X195.9140 Y422.9503 S70
G1 X196.8696 Y421.8548 S70
G1 X197.5569 Y421.1567 S70
G1 X199.0605 Y419.8182 S70
G1 X201.2539 Y418.1029 S70
G1 X209.4352 Y412.6172 S70
G1 X210.4908 Y411.8636 S70
G1 X211.2008 Y411.2623 S70
G1 X211.7995 Y410.6363 S70
G1 X213.7980 Y408.1899 S70
; Cutting distance: 32.93 units
M5

; Path 155/2892 - Power: 70 (100%)
; Travel distance: 41.77 units
G0 X174.4925 Y422.3263 S0 F10000
G1 F8000
M4
G1 X184.8444 Y427.8758 S70
G1 X190.9260 Y431.1376 S70
; Cutting distance: 18.65 units
M5

; Path 156/2892 - Power: 70 (100%)
; Travel distance: 45.32 units
G0 X207.0140 Y388.7717 S0 F10000
G1 F8000
M4
G1 X213.5107 Y379.6639 S70
; Cutting distance: 11.19 units
M5

; Path 157/2892 - Power: 70 (100%)
; Travel distance: 11.19 units
G0 X207.0140 Y388.7717 S0 F10000
G1 F8000
M4
G1 X207.8746 Y389.7643 S70
G1 X217.3406 Y401.4049 S70
G1 X218.2684 Y402.3254 S70
; Cutting distance: 17.62 units
M5

; Path 158/2892 - Power: 70 (100%)
; Travel distance: 21.36 units
G0 X196.9114 Y402.4469 S0 F10000
G1 F8000
M4
G1 X199.3073 Y399.2819 S70
G1 X207.0140 Y388.7717 S70
; Cutting distance: 17.00 units
M5

; Path 159/2892 - Power: 70 (100%)
; Travel distance: 0.00 units
G0 X207.0140 Y388.7717 S0 F10000
G1 F8000
M4
G1 X213.5107 Y379.6639 S70
; Cutting distance: 11.19 units
M5

; Path 160/2892 - Power: 70 (100%)
; Travel distance: 10.77 units
G0 X202.9993 Y377.3000 S0 F10000
G1 F8000
M4
G1 X213.5107 Y379.6639 S70
; Cutting distance: 10.77 units
M5

; Path 161/2892 - Power: 70 (100%)
; Travel distance: 0.00 units
G0 X213.5107 Y379.6639 S0 F10000
G1 F8000
M4
G1 X224.0095 Y382.2976 S70
G1 X225.2549 Y382.6086 S70
G1 X226.2598 Y382.8372 S70
G1 X227.0281 Y382.9504 S70
G1 X228.0368 Y382.9195 S70
G1 X228.5494 Y382.9092 S70
G1 X229.1329 Y383.0081 S70
; Cutting distance: 16.03 units
M5

; Path 162/2892 - Power: 70 (100%)
; Travel distance: 37.63 units
G0 X196.9114 Y402.4469 S0 F10000
G1 F8000
M4
G1 X199.3073 Y399.2819 S70
G1 X207.0140 Y388.7717 S70
; Cutting distance: 17.00 units
M5

; Path 163/2892 - Power: 70 (100%)
; Travel distance: 11.19 units
G0 X213.5107 Y379.6639 S0 F10000
G1 F8000
M4
G1 X224.0095 Y382.2976 S70
G1 X225.2549 Y382.6086 S70
G1 X226.2598 Y382.8372 S70
G1 X227.0281 Y382.9504 S70
G1 X228.0368 Y382.9195 S70
G1 X228.5494 Y382.9092 S70
G1 X229.1329 Y383.0081 S70
; Cutting distance: 16.03 units
M5

; Path 164/2892 - Power: 70 (100%)
; Travel distance: 0.00 units
G0 X229.1329 Y383.0081 S0 F10000
G1 F8000
M4
G1 X229.9556 Y384.1777 S70
G1 X230.7631 Y385.5120 S70
; Cutting distance: 2.99 units
M5

; Path 165/2892 - Power: 70 (100%)
; Travel distance: 13.64 units
G0 X224.3626 Y373.4719 S0 F10000
G1 F8000
M4
G1 X228.2368 Y379.9687 S70
G1 X228.7216 Y381.1342 S70
G1 X228.8899 Y382.1226 S70
G1 X229.1329 Y383.0081 S70
; Cutting distance: 10.75 units
M5

; Path 166/2892 - Power: 70 (100%)
; Travel distance: 30.13 units
G0 X199.6996 Y376.5504 S0 F10000
G1 F8000
M4
G1 X202.9993 Y377.3000 S70
; Cutting distance: 3.38 units
M5

; Path 167/2892 - Power: 70 (100%)
; Travel distance: 33.72 units
G0 X170.2436 Y369.3082 S0 F10000
G1 F8000
M4
G1 X174.3444 Y370.4346 S70
G1 X180.5715 Y372.1746 S70
G1 X184.6824 Y373.1754 S70
G1 X199.6996 Y376.5504 S70
; Cutting distance: 30.34 units
M5

; Path 168/2892 - Power: 70 (100%)
; Travel distance: 17.07 units
G0 X186.3227 Y387.1532 S0 F10000
G1 F8000
M4
G1 X190.2096 Y388.0696 S70
G1 X190.6830 Y388.0902 S70
G1 X191.1551 Y387.9501 S70
G1 X191.5981 Y387.6474 S70
G1 X191.8841 Y387.3241 S70
G1 X199.6996 Y376.5504 S70
; Cutting distance: 19.24 units
M5

; Path 169/2892 - Power: 70 (100%)
; Travel distance: 80.95 units
G0 X121.7708 Y354.6427 S0 F10000
G1 F8000
M4
G1 X124.3148 Y355.9791 S70
G1 X127.1588 Y357.2723 S70
G1 X129.8483 Y358.4131 S70
G1 X132.7252 Y359.5291 S70
G1 X138.6929 Y361.4813 S70
G1 X144.0530 Y363.0607 S70
G1 X149.7460 Y364.7780 S70
G1 X152.7355 Y365.5852 S70
G1 X155.7124 Y366.3698 S70
G1 X159.3449 Y367.1358 S70
G1 X163.2482 Y367.8689 S70
G1 X166.7440 Y368.4640 S70
G1 X170.2436 Y369.3082 S70
; Cutting distance: 50.82 units
M5

; Path 170/2892 - Power: 70 (100%)
; Travel distance: 0.00 units
G0 X170.2436 Y369.3082 S0 F10000
G1 F8000
M4
G1 X174.3444 Y370.4346 S70
G1 X180.5715 Y372.1746 S70
G1 X184.6824 Y373.1754 S70
G1 X199.6996 Y376.5504 S70
; Cutting distance: 30.34 units
M5

; Path 171/2892 - Power: 70 (100%)
; Travel distance: 32.69 units
G0 X167.2098 Y380.1973 S0 F10000
G1 F8000
M4
G1 X167.3427 Y379.2974 S70
G1 X167.4819 Y378.6096 S70
G1 X169.8373 Y370.6776 S70
G1 X170.2436 Y369.3082 S70
; Cutting distance: 11.31 units
M5

; Path 172/2892 - Power: 70 (100%)
; Travel distance: 24.77 units
G0 X162.1610 Y392.7172 S0 F10000
G1 F8000
M4
G1 X164.2987 Y385.5285 S70
G1 X164.5557 Y384.7398 S70
G1 X164.9581 Y384.1365 S70
G1 X165.8239 Y383.3314 S70
G1 X166.2757 Y382.8392 S70
G1 X166.5377 Y382.3759 S70
G1 X166.7655 Y381.7725 S70
G1 X167.2098 Y380.1973 S70
; Cutting distance: 13.72 units
M5

; Path 173/2892 - Power: 70 (100%)
; Travel distance: 0.00 units
G0 X167.2098 Y380.1973 S0 F10000
G1 F8000
M4
G1 X167.3427 Y379.2974 S70
G1 X167.4819 Y378.6096 S70
G1 X169.8373 Y370.6776 S70
G1 X170.2436 Y369.3082 S70
; Cutting distance: 11.31 units
M5

; Path 174/2892 - Power: 70 (100%)
; Travel distance: 24.77 units
G0 X162.1610 Y392.7172 S0 F10000
G1 F8000
M4
G1 X164.2987 Y385.5285 S70
G1 X164.5557 Y384.7398 S70
G1 X164.9581 Y384.1365 S70
G1 X165.8239 Y383.3314 S70
G1 X166.2757 Y382.8392 S70
G1 X166.5377 Y382.3759 S70
G1 X166.7655 Y381.7725 S70
G1 X167.2098 Y380.1973 S70
; Cutting distance: 13.72 units
M5

; Path 175/2892 - Power: 70 (100%)
; Travel distance: 0.00 units
G0 X167.2098 Y380.1973 S0 F10000
G1 F8000
M4
G1 X172.0042 Y381.1198 S70
G1 X175.9341 Y381.9970 S70
G1 X177.0808 Y382.4665 S70
G1 X177.6149 Y382.7877 S70
G1 X178.0655 Y383.1234 S70
G1 X179.0527 Y384.2271 S70
G1 X179.7210 Y384.9375 S70
G1 X180.2298 Y385.3432 S70
G1 X180.9246 Y385.6562 S70
G1 X182.1308 Y386.0680 S70
G1 X186.3227 Y387.1532 S70
; Cutting distance: 20.81 units
M5

; Path 176/2892 - Power: 70 (100%)
; Travel distance: 11.48 units
G0 X179.1894 Y396.1478 S0 F10000
G1 F8000
M4
G1 X180.6361 Y395.8430 S70
G1 X183.1041 Y391.7205 S70
G1 X184.8571 Y391.4528 S70
G1 X186.3227 Y387.1532 S70
; Cutting distance: 12.60 units
M5

; Path 177/2892 - Power: 70 (100%)
; Travel distance: 37.74 units
G0 X160.5131 Y414.6888 S0 F10000
G1 F8000
M4
G1 X164.4038 Y407.2715 S70
; Cutting distance: 8.38 units
M5

; Path 178/2892 - Power: 70 (100%)
; Travel distance: 0.00 units
G0 X164.4038 Y407.2715 S0 F10000
G1 F8000
M4
G1 X170.7562 Y394.3357 S70
G1 X171.0144 Y393.9156 S70
G1 X171.3764 Y393.7097 S70
; Cutting distance: 15.32 units
M5

; Path 179/2892 - Power: 70 (100%)
; Travel distance: 15.25 units
G0 X164.4038 Y407.2715 S0 F10000
G1 F8000
M4
G1 X166.3415 Y408.0067 S70
G1 X168.2337 Y408.4268 S70
G1 X169.6968 Y408.7233 S70
G1 X171.1954 Y408.8056 S70
G1 X172.1016 Y408.6244 S70
G1 X172.8458 Y408.3114 S70
G1 X173.6710 Y407.7987 S70
G1 X174.4849 Y407.1253 S70
G1 X175.5721 Y406.1925 S70
G1 X176.7188 Y405.0126 S70
G1 X177.3491 Y404.2198 S70
G1 X177.8959 Y403.4517 S70
G1 X178.2275 Y402.7578 S70
G1 X178.6198 Y401.4111 S70
G1 X179.2071 Y399.1233 S70
G1 X179.3742 Y397.9393 S70
G1 X179.4134 Y397.1197 S70
G1 X179.3248 Y396.6008 S70
G1 X179.1894 Y396.1478 S70
; Cutting distance: 23.35 units
M5

; Path 180/2892 - Power: 70 (100%)
; Travel distance: 18.50 units
G0 X164.4038 Y407.2715 S0 F10000
G1 F8000
M4
G1 X166.3415 Y408.0067 S70
G1 X168.2337 Y408.4268 S70
G1 X169.6968 Y408.7233 S70
G1 X171.1954 Y408.8056 S70
G1 X172.1016 Y408.6244 S70
G1 X172.8458 Y408.3114 S70
G1 X173.6710 Y407.7987 S70
G1 X174.4849 Y407.1253 S70
G1 X175.5721 Y406.1925 S70
G1 X176.7188 Y405.0126 S70
G1 X177.3491 Y404.2198 S70
G1 X177.8959 Y403.4517 S70
G1 X178.2275 Y402.7578 S70
G1 X178.6198 Y401.4111 S70
G1 X179.2071 Y399.1233 S70
G1 X179.3742 Y397.9393 S70
G1 X179.4134 Y397.1197 S70
G1 X179.3248 Y396.6008 S70
G1 X179.1894 Y396.1478 S70
; Cutting distance: 23.35 units
M5

; Path 181/2892 - Power: 70 (100%)
; Travel distance: 8.18 units
G0 X171.3764 Y393.7097 S0 F10000
G1 F8000
M4
G1 X171.7194 Y393.5841 S70
G1 X172.1826 Y393.5779 S70
G1 X173.2762 Y393.8147 S70
G1 X178.3085 Y395.4847 S70
G1 X178.8312 Y395.7359 S70
G1 X179.1894 Y396.1478 S70
; Cutting distance: 8.38 units
M5

; Path 182/2892 - Power: 70 (100%)
; Travel distance: 0.00 units
G0 X179.1894 Y396.1478 S0 F10000
G1 F8000
M4
G1 X180.6361 Y395.8430 S70
G1 X183.1041 Y391.7205 S70
G1 X184.8571 Y391.4528 S70
G1 X186.3227 Y387.1532 S70
; Cutting distance: 12.60 units
M5

; Path 183/2892 - Power: 70 (100%)
; Travel distance: 40.43 units
G0 X224.3626 Y373.4719 S0 F10000
G1 F8000
M4
G1 X227.9609 Y370.4799 S70
G1 X229.6392 Y369.1106 S70
G1 X233.1464 Y366.4748 S70
; Cutting distance: 11.23 units
M5

; Path 184/2892 - Power: 70 (100%)
; Travel distance: 11.23 units
G0 X224.3626 Y373.4719 S0 F10000
G1 F8000
M4
G1 X228.2368 Y379.9687 S70
G1 X228.7216 Y381.1342 S70
G1 X228.8899 Y382.1226 S70
G1 X229.1329 Y383.0081 S70
; Cutting distance: 10.75 units
M5

; Path 185/2892 - Power: 70 (100%)
; Travel distance: 139.88 units
G0 X125.6362 Y288.9132 S0 F10000
G1 F8000
M4
G1 X130.5710 Y288.5693 S70
G1 X133.8415 Y288.1739 S70
G1 X136.2337 Y289.6977 S70
G1 X138.2372 Y292.9369 S70
G1 X139.3118 Y294.6130 S70
G1 X140.4965 Y295.9330 S70
G1 X141.8786 Y297.1026 S70
G1 X143.1240 Y297.8913 S70
G1 X145.2035 Y298.9971 S70
G1 X151.2623 Y301.4702 S70
G1 X154.6695 Y302.9878 S70
G1 X157.9476 Y304.5075 S70
G1 X161.0687 Y306.0683 S70
G1 X163.7925 Y307.7116 S70
G1 X165.0784 Y308.6156 S70
G1 X166.6225 Y309.9726 S70
G1 X169.9677 Y312.9811 S70
G1 X174.0672 Y316.8503 S70
G1 X176.1897 Y319.1936 S70
G1 X178.5401 Y321.9880 S70
G1 X180.7221 Y324.7926 S70
G1 X182.0321 Y326.7097 S70
G1 X184.4356 Y330.4801 S70
G1 X186.7214 Y334.3122 S70
G1 X190.8551 Y339.9812 S70
G1 X192.8701 Y342.8847 S70
G1 X194.7964 Y345.3475 S70
G1 X195.7647 Y346.4800 S70
G1 X198.6086 Y349.1858 S70
G1 X203.2764 Y353.2445 S70
G1 X220.1934 Y368.3878 S70
G1 X221.4427 Y369.4215 S70
G1 X222.2325 Y370.2720 S70
G1 X223.2893 Y371.6928 S70
G1 X224.3626 Y373.4719 S70
; Cutting distance: 134.85 units
M5

; Path 186/2892 - Power: 70 (100%)
; Travel distance: 79.56 units
G0 X285.1884 Y424.7500 S0 F10000
G1 F8000
M4
G1 X286.5718 Y423.6833 S70
G1 X287.6919 Y422.8699 S70
G1 X289.3562 Y421.8053 S70
G1 X291.4408 Y420.5863 S70
G1 X292.2648 Y420.0303 S70
; Cutting distance: 8.52 units
M5

; Path 187/2892 - Power: 70 (100%)
; Travel distance: 19.25 units
G0 X279.0764 Y434.0575 S0 F10000
G1 F8000
M4
G1 X279.8320 Y431.9942 S70
G1 X280.5914 Y430.3325 S70
G1 X281.3116 Y428.9631 S70
G1 X282.1381 Y427.7729 S70
G1 X283.0582 Y426.7042 S70
G1 X284.0733 Y425.7178 S70
G1 X285.1884 Y424.7500 S70
; Cutting distance: 11.32 units
M5

; Path 188/2892 - Power: 70 (100%)
; Travel distance: 8.51 units
G0 X277.5766 Y420.9364 S0 F10000
G1 F8000
M4
G1 X281.8014 Y422.4396 S70
G1 X283.5898 Y423.4259 S70
G1 X284.3226 Y423.8975 S70
G1 X285.1884 Y424.7500 S70
; Cutting distance: 8.61 units
M5

; Path 189/2892 - Power: 70 (100%)
; Travel distance: 185.69 units
G0 X153.9240 Y293.4084 S0 F10000
G1 F8000
M4
G1 X160.2131 Y294.7943 S70
; Cutting distance: 6.44 units
M5

; Path 190/2892 - Power: 70 (100%)
; Travel distance: 6.44 units
G0 X153.9240 Y293.4084 S0 F10000
G1 F8000
M4
G1 X156.0921 Y289.5536 S70
; Cutting distance: 4.42 units
M5

; Path 191/2892 - Power: 70 (100%)
; Travel distance: 30.46 units
G0 X125.6362 Y288.9132 S0 F10000
G1 F8000
M4
G1 X127.1119 Y288.2460 S70
G1 X127.9802 Y287.2720 S70
G1 X128.5308 Y286.6193 S70
G1 X129.5661 Y284.2512 S70
G1 X129.7800 Y283.8785 S70
G1 X138.6283 Y287.8671 S70
G1 X148.7398 Y291.9711 S70
G1 X153.9240 Y293.4084 S70
; Cutting distance: 32.79 units
M5

; Path 192/2892 - Power: 70 (100%)
; Travel distance: 0.00 units
G0 X153.9240 Y293.4084 S0 F10000
G1 F8000
M4
G1 X160.2131 Y294.7943 S70
; Cutting distance: 6.44 units
M5

; Path 193/2892 - Power: 70 (100%)
; Travel distance: 0.00 units
G0 X160.2131 Y294.7943 S0 F10000
G1 F8000
M4
G1 X167.5553 Y300.1626 S70
G1 X179.3957 Y307.1000 S70
G1 X181.4182 Y309.1057 S70
G1 X184.1686 Y312.6125 S70
G1 X188.3098 Y319.8876 S70
; Cutting distance: 38.49 units
M5

; Path 194/2892 - Power: 70 (100%)
; Travel distance: 44.25 units
G0 X156.0921 Y289.5536 S0 F10000
G1 F8000
M4
G1 X157.4843 Y291.3245 S70
G1 X158.8513 Y293.2560 S70
G1 X160.2131 Y294.7943 S70
; Cutting distance: 6.67 units
M5

; Path 195/2892 - Power: 70 (100%)
; Travel distance: 59.30 units
G0 X138.2043 Y239.7273 S0 F10000
G1 F8000
M4
G1 X143.4708 Y237.8019 S70
; Cutting distance: 5.61 units
M5

; Path 196/2892 - Power: 70 (100%)
; Travel distance: 0.00 units
G0 X143.4708 Y237.8019 S0 F10000
G1 F8000
M4
G1 X144.5643 Y234.4969 S70
G1 X145.7882 Y229.1657 S70
G1 X150.6092 Y201.3666 S70
G1 X155.5605 Y168.9343 S70
; Cutting distance: 69.97 units
M5

; Path 197/2892 - Power: 70 (100%)
; Travel distance: 74.23 units
G0 X142.0001 Y241.9121 S0 F10000
G1 F8000
M4
G1 X142.6329 Y240.5036 S70
G1 X143.4708 Y237.8019 S70
; Cutting distance: 4.37 units
M5

; Path 198/2892 - Power: 70 (100%)
; Travel distance: 5.61 units
G0 X138.2043 Y239.7273 S0 F10000
G1 F8000
M4
G1 X142.0001 Y241.9121 S70
; Cutting distance: 4.38 units
M5

; Path 199/2892 - Power: 70 (100%)
; Travel distance: 0.00 units
G0 X142.0001 Y241.9121 S0 F10000
G1 F8000
M4
G1 X141.8849 Y243.6665 S70
G1 X142.3443 Y247.2886 S70
; Cutting distance: 5.41 units
M5

; Path 200/2892 - Power: 70 (100%)
; Travel distance: 5.39 units
G0 X142.0001 Y241.9121 S0 F10000
G1 F8000
M4
G1 X142.6329 Y240.5036 S70
G1 X143.4708 Y237.8019 S70
; Cutting distance: 4.37 units
M5

; Path 201/2892 - Power: 70 (100%)
; Travel distance: 9.55 units
G0 X142.3443 Y247.2886 S0 F10000
G1 F8000
M4
G1 X143.5239 Y252.7496 S70
G1 X144.0188 Y256.6559 S70
G1 X143.9543 Y262.5226 S70
G1 X144.0846 Y268.1215 S70
G1 X146.8071 Y274.9230 S70
G1 X150.0801 Y281.4610 S70
G1 X156.0453 Y288.7423 S70
; Cutting distance: 45.04 units
M5

; Path 202/2892 - Power: 70 (100%)
; Travel distance: 48.89 units
G0 X142.0001 Y241.9121 S0 F10000
G1 F8000
M4
G1 X141.8849 Y243.6665 S70
G1 X142.3443 Y247.2886 S70
; Cutting distance: 5.41 units
M5

; Path 203/2892 - Power: 70 (100%)
; Travel distance: 56.57 units
G0 X94.9777 Y216.3637 S0 F10000
G1 F8000
M4
G1 X90.2251 Y224.3739 S70
G1 X95.5207 Y228.8547 S70
G1 X103.5324 Y235.1003 S70
G1 X109.5077 Y237.5425 S70
G1 X116.8397 Y239.3093 S70
G1 X122.8150 Y241.0740 S70
G1 X128.1106 Y243.6521 S70
G1 X133.8137 Y247.4554 S70
G1 X137.0260 Y250.0191 S70
G1 X138.4638 Y250.2477 S70
G1 X142.3443 Y247.2886 S70
; Cutting distance: 69.83 units
M5

; Path 204/2892 - Power: 70 (100%)
; Travel distance: 47.55 units
G0 X153.9240 Y293.4084 S0 F10000
G1 F8000
M4
G1 X156.0921 Y289.5536 S70
; Cutting distance: 4.42 units
M5

; Path 205/2892 - Power: 70 (100%)
; Travel distance: 0.81 units
G0 X156.0453 Y288.7423 S0 F10000
G1 F8000
M4
G1 X156.0921 Y289.5536 S70
; Cutting distance: 0.81 units
M5

; Path 206/2892 - Power: 70 (100%)
; Travel distance: 0.00 units
G0 X156.0921 Y289.5536 S0 F10000
G1 F8000
M4
G1 X157.4843 Y291.3245 S70
G1 X158.8513 Y293.2560 S70
G1 X160.2131 Y294.7943 S70
; Cutting distance: 6.67 units
M5

; Path 207/2892 - Power: 70 (100%)
; Travel distance: 37.67 units
G0 X188.3098 Y319.8876 S0 F10000
G1 F8000
M4
G1 X188.5794 Y318.2567 S70
; Cutting distance: 1.65 units
M5

; Path 208/2892 - Power: 70 (100%)
; Travel distance: 1.65 units
G0 X188.3098 Y319.8876 S0 F10000
G1 F8000
M4
G1 X188.9060 Y321.4526 S70
G1 X189.9084 Y323.4418 S70
G1 X191.7120 Y326.2052 S70
G1 X194.5648 Y330.2659 S70
; Cutting distance: 12.16 units
M5

; Path 209/2892 - Power: 70 (100%)
; Travel distance: 49.38 units
G0 X160.2131 Y294.7943 S0 F10000
G1 F8000
M4
G1 X167.5553 Y300.1626 S70
G1 X179.3957 Y307.1000 S70
G1 X181.4182 Y309.1057 S70
G1 X184.1686 Y312.6125 S70
G1 X188.3098 Y319.8876 S70
; Cutting distance: 38.49 units
M5

; Path 210/2892 - Power: 70 (100%)
; Travel distance: 74.04 units
G0 X239.3532 Y373.5234 S0 F10000
G1 F8000
M4
G1 X244.5324 Y378.9968 S70
; Cutting distance: 7.54 units
M5

; Path 211/2892 - Power: 70 (100%)
; Travel distance: 0.00 units
G0 X244.5324 Y378.9968 S0 F10000
G1 F8000
M4
G1 X244.5716 Y376.1386 S70
G1 X244.6032 Y372.4341 S70
G1 X245.9373 Y369.3597 S70
; Cutting distance: 9.91 units
M5

; Path 212/2892 - Power: 70 (100%)
; Travel distance: 9.74 units
G0 X244.5324 Y378.9968 S0 F10000
G1 F8000
M4
G1 X247.1574 Y381.6511 S70
G1 X248.8964 Y383.1234 S70
G1 X250.3849 Y384.1983 S70
G1 X252.3049 Y385.3247 S70
G1 X255.4551 Y387.0029 S70
G1 X261.0937 Y389.6181 S70
G1 X265.7577 Y391.6443 S70
G1 X266.9070 Y392.1015 S70
; Cutting distance: 26.18 units
M5

; Path 213/2892 - Power: 70 (100%)
; Travel distance: 199.45 units
G0 X138.2043 Y239.7273 S0 F10000
G1 F8000
M4
G1 X143.4708 Y237.8019 S70
; Cutting distance: 5.61 units
M5

; Path 214/2892 - Power: 70 (100%)
; Travel distance: 5.61 units
G0 X138.2043 Y239.7273 S0 F10000
G1 F8000
M4
G1 X142.0001 Y241.9121 S70
; Cutting distance: 4.38 units
M5

; Path 215/2892 - Power: 70 (100%)
; Travel distance: 53.51 units
G0 X94.9777 Y216.3637 S0 F10000
G1 F8000
M4
G1 X114.4894 Y228.6838 S70
G1 X133.9175 Y238.4444 S70
G1 X138.2043 Y239.7273 S70
; Cutting distance: 49.29 units
M5

; Path 216/2892 - Power: 70 (100%)
; Travel distance: 87.99 units
G0 X61.1868 Y197.1864 S0 F10000
G1 F8000
M4
G1 X94.9777 Y216.3637 S70
; Cutting distance: 38.85 units
M5

; Path 217/2892 - Power: 70 (100%)
; Travel distance: 0.00 units
G0 X94.9777 Y216.3637 S0 F10000
G1 F8000
M4
G1 X114.4894 Y228.6838 S70
G1 X133.9175 Y238.4444 S70
G1 X138.2043 Y239.7273 S70
; Cutting distance: 49.29 units
M5

; Path 218/2892 - Power: 70 (100%)
; Travel distance: 49.14 units
G0 X94.9777 Y216.3637 S0 F10000
G1 F8000
M4
G1 X90.2251 Y224.3739 S70
G1 X95.5207 Y228.8547 S70
G1 X103.5324 Y235.1003 S70
G1 X109.5077 Y237.5425 S70
G1 X116.8397 Y239.3093 S70
G1 X122.8150 Y241.0740 S70
G1 X128.1106 Y243.6521 S70
G1 X133.8137 Y247.4554 S70
G1 X137.0260 Y250.0191 S70
G1 X138.4638 Y250.2477 S70
G1 X142.3443 Y247.2886 S70
; Cutting distance: 69.83 units
M5

; Path 219/2892 - Power: 70 (100%)
; Travel distance: 98.50 units
G0 X57.3783 Y197.4623 S0 F10000
G1 F8000
M4
G1 X61.1868 Y197.1864 S70
; Cutting distance: 3.82 units
M5

; Path 220/2892 - Power: 70 (100%)
; Travel distance: 0.00 units
G0 X61.1868 Y197.1864 S0 F10000
G1 F8000
M4
G1 X94.9777 Y216.3637 S70
; Cutting distance: 38.85 units
M5

; Path 221/2892 - Power: 70 (100%)
; Travel distance: 38.85 units
G0 X61.1868 Y197.1864 S0 F10000
G1 F8000
M4
G1 X60.6855 Y188.8817 S70
G1 X60.3210 Y186.8657 S70
G1 X59.2022 Y183.5689 S70
G1 X59.1882 Y182.7514 S70
G1 X59.4059 Y182.0287 S70
G1 X60.1755 Y181.9360 S70
G1 X63.6194 Y183.6287 S70
; Cutting distance: 20.03 units
M5

; Path 222/2892 - Power: 70 (100%)
; Travel distance: 155.87 units
G0 X196.9253 Y264.3985 S0 F10000
G1 F8000
M4
G1 X198.6567 Y259.4420 S70
G1 X200.7957 Y256.9813 S70
G1 X205.5572 Y254.0655 S70
; Cutting distance: 14.09 units
M5

; Path 223/2892 - Power: 70 (100%)
; Travel distance: 23.71 units
G0 X194.3117 Y274.9374 S0 F10000
G1 F8000
M4
G1 X194.7863 Y272.5611 S70
G1 X196.9253 Y264.3985 S70
; Cutting distance: 10.86 units
M5

; Path 224/2892 - Power: 70 (100%)
; Travel distance: 0.00 units
G0 X196.9253 Y264.3985 S0 F10000
G1 F8000
M4
G1 X228.9519 Y267.5120 S70
G1 X229.9138 Y267.4914 S70
; Cutting distance: 33.14 units
M5

; Path 225/2892 - Power: 70 (100%)
; Travel distance: 78.58 units
G0 X206.4432 Y342.4893 S0 F10000
G1 F8000
M4
G1 X240.8771 Y344.9953 S70
; Cutting distance: 34.53 units
M5

; Path 226/2892 - Power: 70 (100%)
; Travel distance: 34.53 units
G0 X206.4432 Y342.4893 S0 F10000
G1 F8000
M4
G1 X212.3172 Y348.4692 S70
G1 X213.4677 Y349.4576 S70
G1 X216.2116 Y351.2615 S70
G1 X220.1707 Y354.3070 S70
; Cutting distance: 18.18 units
M5

; Path 227/2892 - Power: 70 (100%)
; Travel distance: 35.12 units
G0 X194.5648 Y330.2659 S0 F10000
G1 F8000
M4
G1 X196.1077 Y332.2469 S70
G1 X198.0555 Y334.2381 S70
G1 X201.3058 Y337.4443 S70
G1 X203.8688 Y339.8371 S70
G1 X206.4432 Y342.4893 S70
; Cutting distance: 17.06 units
M5

; Path 228/2892 - Power: 70 (100%)
; Travel distance: 17.04 units
G0 X194.5648 Y330.2659 S0 F10000
G1 F8000
M4
G1 X217.0381 Y332.0492 S70
G1 X239.0735 Y334.1454 S70
; Cutting distance: 44.68 units
M5

; Path 229/2892 - Power: 70 (100%)
; Travel distance: 44.68 units
G0 X194.5648 Y330.2659 S0 F10000
G1 F8000
M4
G1 X196.1077 Y332.2469 S70
G1 X198.0555 Y334.2381 S70
G1 X201.3058 Y337.4443 S70
G1 X203.8688 Y339.8371 S70
G1 X206.4432 Y342.4893 S70
; Cutting distance: 17.06 units
M5

; Path 230/2892 - Power: 70 (100%)
; Travel distance: 28.98 units
G0 X188.3098 Y319.8876 S0 F10000
G1 F8000
M4
G1 X188.9060 Y321.4526 S70
G1 X189.9084 Y323.4418 S70
G1 X191.7120 Y326.2052 S70
G1 X194.5648 Y330.2659 S70
; Cutting distance: 12.16 units
M5

; Path 231/2892 - Power: 70 (100%)
; Travel distance: 53.62 units
G0 X245.2399 Y312.7278 S0 F10000
G1 F8000
M4
G1 X245.7715 Y306.0519 S70
; Cutting distance: 6.70 units
M5

; Path 232/2892 - Power: 70 (100%)
; Travel distance: 17.58 units
G0 X244.1970 Y323.5653 S0 F10000
G1 F8000
M4
G1 X245.2399 Y312.7278 S70
; Cutting distance: 10.89 units
M5

; Path 233/2892 - Power: 70 (100%)
; Travel distance: 55.69 units
G0 X189.8033 Y307.4665 S0 F10000
G1 F8000
M4
G1 X245.2399 Y312.7278 S70
; Cutting distance: 55.69 units
M5

; Path 234/2892 - Power: 70 (100%)
; Travel distance: 56.20 units
G0 X191.3614 Y296.7484 S0 F10000
G1 F8000
M4
G1 X192.8346 Y285.8512 S70
; Cutting distance: 11.00 units
M5

; Path 235/2892 - Power: 70 (100%)
; Travel distance: 13.72 units
G0 X190.9703 Y299.4398 S0 F10000
G1 F8000
M4
G1 X191.3614 Y296.7484 S70
; Cutting distance: 2.72 units
M5

; Path 236/2892 - Power: 70 (100%)
; Travel distance: 0.00 units
G0 X191.3614 Y296.7484 S0 F10000
G1 F8000
M4
G1 X246.1626 Y301.9314 S70
; Cutting distance: 55.05 units
M5

; Path 237/2892 - Power: 70 (100%)
; Travel distance: 62.77 units
G0 X205.5572 Y254.0655 S0 F10000
G1 F8000
M4
G1 X219.9530 Y255.6552 S70
; Cutting distance: 14.48 units
M5

; Path 238/2892 - Power: 70 (100%)
; Travel distance: 56.63 units
G0 X245.7715 Y306.0519 S0 F10000
G1 F8000
M4
G1 X246.1626 Y301.9314 S70
; Cutting distance: 4.14 units
M5

; Path 239/2892 - Power: 70 (100%)
; Travel distance: 10.84 units
G0 X245.2399 Y312.7278 S0 F10000
G1 F8000
M4
G1 X245.7715 Y306.0519 S70
; Cutting distance: 6.70 units
M5

; Path 240/2892 - Power: 70 (100%)
; Travel distance: 0.00 units
G0 X245.7715 Y306.0519 S0 F10000
G1 F8000
M4
G1 X246.6245 Y305.4382 S70
G1 X251.5404 Y301.5834 S70
; Cutting distance: 7.30 units
M5

; Path 241/2892 - Power: 70 (100%)
; Travel distance: 37.82 units
G0 X276.3641 Y330.1197 S0 F10000
G1 F8000
M4
G1 X277.4323 Y329.3558 S70
; Cutting distance: 1.31 units
M5

; Path 242/2892 - Power: 70 (100%)
; Travel distance: 2.62 units
G0 X275.8705 Y327.2492 S0 F10000
G1 F8000
M4
G1 X277.4323 Y329.3558 S70
; Cutting distance: 2.62 units
M5

; Path 243/2892 - Power: 70 (100%)
; Travel distance: 0.00 units
G0 X277.4323 Y329.3558 S0 F10000
G1 F8000
M4
G1 X278.3044 Y330.5357 S70
; Cutting distance: 1.47 units
M5

; Path 244/2892 - Power: 70 (100%)
; Travel distance: 3.17 units
G0 X275.1668 Y330.9681 S0 F10000
G1 F8000
M4
G1 X275.3338 Y330.8549 S70
; Cutting distance: 0.20 units
M5

; Path 245/2892 - Power: 70 (100%)
; Travel distance: 28.60 units
G0 X258.3383 Y307.8516 S0 F10000
G1 F8000
M4
G1 X275.3338 Y330.8549 S70
; Cutting distance: 28.60 units
M5

; Path 246/2892 - Power: 70 (100%)
; Travel distance: 0.00 units
G0 X275.3338 Y330.8549 S0 F10000
G1 F8000
M4
G1 X276.1945 Y330.2412 S70
G1 X276.3641 Y330.1197 S70
; Cutting distance: 1.27 units
M5

; Path 247/2892 - Power: 70 (100%)
; Travel distance: 48.04 units
G0 X248.7420 Y290.8138 S0 F10000
G1 F8000
M4
G1 X248.3205 Y291.8434 S70
G1 X248.0054 Y292.8524 S70
G1 X247.8598 Y293.8614 S70
G1 X252.7112 Y300.2264 S70
; Cutting distance: 11.19 units
M5

; Path 248/2892 - Power: 70 (100%)
; Travel distance: 11.39 units
G0 X248.0269 Y289.8481 S0 F10000
G1 F8000
M4
G1 X248.7420 Y290.8138 S70
; Cutting distance: 1.20 units
M5

; Path 249/2892 - Power: 70 (100%)
; Travel distance: 0.00 units
G0 X248.7420 Y290.8138 S0 F10000
G1 F8000
M4
G1 X248.3205 Y291.8434 S70
G1 X248.0054 Y292.8524 S70
G1 X247.8598 Y293.8614 S70
G1 X252.7112 Y300.2264 S70
; Cutting distance: 11.19 units
M5

; Path 250/2892 - Power: 70 (100%)
; Travel distance: 10.22 units
G0 X248.7420 Y290.8138 S0 F10000
G1 F8000
M4
G1 X251.8176 Y294.9487 S70
G1 X253.8325 Y297.9160 S70
G1 X257.5169 Y302.9940 S70
; Cutting distance: 15.01 units
M5

; Path 251/2892 - Power: 70 (100%)
; Travel distance: 57.21 units
G0 X293.6317 Y347.3593 S0 F10000
G1 F8000
M4
G1 X294.0392 Y347.0360 S70
; Cutting distance: 0.52 units
M5

; Path 252/2892 - Power: 70 (100%)
; Travel distance: 0.00 units
G0 X294.0392 Y347.0360 S0 F10000
G1 F8000
M4
G1 X294.3519 Y347.4726 S70
G1 X294.5265 Y347.8535 S70
G1 X294.5404 Y348.2489 S70
G1 X294.5556 Y348.7060 S70
G1 X294.6695 Y349.0931 S70
G1 X294.8809 Y349.3505 S70
G1 X298.7184 Y354.5644 S70
; Cutting distance: 9.02 units
M5

; Path 253/2892 - Power: 70 (100%)
; Travel distance: 19.65 units
G0 X286.9312 Y338.8425 S0 F10000
G1 F8000
M4
G1 X292.3445 Y346.0538 S70
G1 X292.5293 Y346.2288 S70
G1 X292.8799 Y346.3503 S70
G1 X293.5570 Y346.5562 S70
G1 X294.0392 Y347.0360 S70
; Cutting distance: 11.03 units
M5

; Path 254/2892 - Power: 70 (100%)
; Travel distance: 0.00 units
G0 X294.0392 Y347.0360 S0 F10000
G1 F8000
M4
G1 X294.2544 Y346.8713 S70
G1 X295.6365 Y345.9034 S70
G1 X296.3339 Y345.4134 S70
; Cutting distance: 2.81 units
M5

; Path 255/2892 - Power: 70 (100%)
; Travel distance: 28.68 units
G0 X312.2599 Y369.2691 S0 F10000
G1 F8000
M4
G1 X318.0820 Y373.4246 S70
; Cutting distance: 7.15 units
M5

; Path 256/2892 - Power: 70 (100%)
; Travel distance: 0.00 units
G0 X318.0820 Y373.4246 S0 F10000
G1 F8000
M4
G1 X318.8211 Y374.8907 S70
G1 X319.1477 Y375.6382 S70
G1 X319.3641 Y376.2827 S70
G1 X319.6413 Y377.1414 S70
G1 X319.8539 Y378.1154 S70
; Cutting distance: 5.04 units
M5

; Path 257/2892 - Power: 70 (100%)
; Travel distance: 5.01 units
G0 X318.0820 Y373.4246 S0 F10000
G1 F8000
M4
G1 X319.0186 Y374.0918 S70
G1 X320.4754 Y376.0068 S70
G1 X321.2803 Y377.1497 S70
G1 X321.6600 Y377.6850 S70
G1 X321.7790 Y378.0907 S70
; Cutting distance: 6.03 units
M5

; Path 258/2892 - Power: 70 (100%)
; Travel distance: 41.67 units
G0 X293.6317 Y347.3593 S0 F10000
G1 F8000
M4
G1 X294.0392 Y347.0360 S70
; Cutting distance: 0.52 units
M5

; Path 259/2892 - Power: 70 (100%)
; Travel distance: 0.52 units
G0 X293.6317 Y347.3593 S0 F10000
G1 F8000
M4
G1 X294.0785 Y347.8267 S70
G1 X294.1468 Y348.0409 S70
G1 X294.1405 Y348.3127 S70
G1 X294.1114 Y349.3011 S70
G1 X294.1544 Y349.6162 S70
G1 X294.3025 Y349.8798 S70
G1 X303.1015 Y361.2341 S70
G1 X306.0239 Y364.3971 S70
; Cutting distance: 21.42 units
M5

; Path 260/2892 - Power: 70 (100%)
; Travel distance: 31.92 units
G0 X286.3287 Y339.2831 S0 F10000
G1 F8000
M4
G1 X291.5066 Y346.2494 S70
G1 X291.6914 Y346.3874 S70
G1 X291.9559 Y346.5006 S70
G1 X293.2267 Y346.8692 S70
G1 X293.6317 Y347.3593 S70
; Cutting distance: 11.16 units
M5

; Path 261/2892 - Power: 70 (100%)
; Travel distance: 2.16 units
G0 X291.9116 Y348.6587 S0 F10000
G1 F8000
M4
G1 X293.0558 Y347.7938 S70
G1 X293.6317 Y347.3593 S70
; Cutting distance: 2.16 units
M5

; Path 262/2892 - Power: 70 (100%)
; Travel distance: 40.42 units
G0 X319.8539 Y378.1154 S0 F10000
G1 F8000
M4
G1 X321.7790 Y378.0907 S70
; Cutting distance: 1.93 units
M5

; Path 263/2892 - Power: 70 (100%)
; Travel distance: 1.93 units
G0 X319.8539 Y378.1154 S0 F10000
G1 F8000
M4
G1 X320.1792 Y379.6083 S70
G1 X320.2994 Y380.6935 S70
G1 X320.3501 Y381.7087 S70
G1 X320.3463 Y385.4791 S70
G1 X320.0299 Y391.3478 S70
G1 X320.0134 Y391.6546 S70
G1 X320.0488 Y392.2044 S70
G1 X320.2349 Y392.5771 S70
G1 X320.4640 Y392.8490 S70
G1 X320.6538 Y393.2217 S70
; Cutting distance: 15.33 units
M5

; Path 264/2892 - Power: 70 (100%)
; Travel distance: 19.96 units
G0 X318.0820 Y373.4246 S0 F10000
G1 F8000
M4
G1 X318.8211 Y374.8907 S70
G1 X319.1477 Y375.6382 S70
G1 X319.3641 Y376.2827 S70
G1 X319.6413 Y377.1414 S70
G1 X319.8539 Y378.1154 S70
; Cutting distance: 5.04 units
M5

; Path 265/2892 - Power: 70 (100%)
; Travel distance: 1.93 units
G0 X321.7790 Y378.0907 S0 F10000
G1 F8000
M4
G1 X325.3837 Y378.2163 S70
; Cutting distance: 3.61 units
M5

; Path 266/2892 - Power: 70 (100%)
; Travel distance: 0.00 units
G0 X325.3837 Y378.2163 S0 F10000
G1 F8000
M4
G1 X331.2260 Y378.3666 S70
G1 X332.0259 Y379.3612 S70
; Cutting distance: 7.12 units
M5

; Path 267/2892 - Power: 70 (100%)
; Travel distance: 6.74 units
G0 X325.3837 Y378.2163 S0 F10000
G1 F8000
M4
G1 X326.0127 Y367.3973 S70
G1 X326.9113 Y354.0146 S70
G1 X327.3556 Y347.4767 S70
G1 X326.1810 Y347.4170 S70
G1 X326.3291 Y343.1112 S70
G1 X326.4076 Y342.6664 S70
G1 X326.6050 Y342.2710 S70
G1 X327.5138 Y341.0952 S70
G1 X327.7112 Y340.7102 S70
G1 X327.8403 Y340.1871 S70
G1 X328.4314 Y331.2893 S70
; Cutting distance: 48.56 units
M5

; Path 268/2892 - Power: 70 (100%)
; Travel distance: 77.60 units
G0 X398.9383 Y363.7114 S0 F10000
G1 F8000
M4
G1 X399.2370 Y356.5289 S70
G1 X399.4813 Y351.4118 S70
; Cutting distance: 12.31 units
M5

; Path 269/2892 - Power: 70 (100%)
; Travel distance: 157.39 units
G0 X244.5324 Y378.9968 S0 F10000
G1 F8000
M4
G1 X244.5716 Y376.1386 S70
G1 X244.6032 Y372.4341 S70
G1 X245.9373 Y369.3597 S70
; Cutting distance: 9.91 units
M5

; Path 270/2892 - Power: 70 (100%)
; Travel distance: 126.32 units
G0 X359.5455 Y314.1301 S0 F10000
G1 F8000
M4
G1 X365.9498 Y314.7499 S70
; Cutting distance: 6.43 units
M5

; Path 271/2892 - Power: 70 (100%)
; Travel distance: 12.73 units
G0 X358.2127 Y324.8544 S0 F10000
G1 F8000
M4
G1 X359.5455 Y314.1301 S70
; Cutting distance: 10.81 units
M5

; Path 272/2892 - Power: 70 (100%)
; Travel distance: 0.00 units
G0 X359.5455 Y314.1301 S0 F10000
G1 F8000
M4
G1 X360.0290 Y310.6521 S70
; Cutting distance: 3.51 units
M5

; Path 273/2892 - Power: 70 (100%)
; Travel distance: 7.20 units
G0 X365.9498 Y314.7499 S0 F10000
G1 F8000
M4
G1 X370.2683 Y315.1123 S70
; Cutting distance: 4.33 units
M5

; Path 274/2892 - Power: 70 (100%)
; Travel distance: 10.77 units
G0 X359.5455 Y314.1301 S0 F10000
G1 F8000
M4
G1 X365.9498 Y314.7499 S70
; Cutting distance: 6.43 units
M5

; Path 275/2892 - Power: 70 (100%)
; Travel distance: 0.00 units
G0 X365.9498 Y314.7499 S0 F10000
G1 F8000
M4
G1 X367.1193 Y305.3332 S70
; Cutting distance: 9.49 units
M5

; Path 276/2892 - Power: 70 (100%)
; Travel distance: 10.27 units
G0 X370.2683 Y315.1123 S0 F10000
G1 F8000
M4
G1 X374.1640 Y315.4397 S70
G1 X375.3095 Y305.9015 S70
; Cutting distance: 13.52 units
M5

; Path 277/2892 - Power: 70 (100%)
; Travel distance: 12.88 units
G0 X365.9498 Y314.7499 S0 F10000
G1 F8000
M4
G1 X367.1193 Y305.3332 S70
; Cutting distance: 9.49 units
M5

; Path 278/2892 - Power: 70 (100%)
; Travel distance: 30.24 units
G0 X340.5996 Y290.7974 S0 F10000
G1 F8000
M4
G1 X349.9036 Y292.7001 S70
; Cutting distance: 9.50 units
M5

; Path 279/2892 - Power: 70 (100%)
; Travel distance: 0.00 units
G0 X349.9036 Y292.7001 S0 F10000
G1 F8000
M4
G1 X351.0212 Y287.3008 S70
; Cutting distance: 5.51 units
M5

; Path 280/2892 - Power: 70 (100%)
; Travel distance: 12.25 units
G0 X348.4645 Y299.2812 S0 F10000
G1 F8000
M4
G1 X349.9036 Y292.7001 S70
; Cutting distance: 6.74 units
M5

; Path 281/2892 - Power: 70 (100%)
; Travel distance: 16.45 units
G0 X333.7928 Y289.3683 S0 F10000
G1 F8000
M4
G1 X340.5996 Y290.7974 S70
; Cutting distance: 6.96 units
M5

; Path 282/2892 - Power: 70 (100%)
; Travel distance: 0.00 units
G0 X340.5996 Y290.7974 S0 F10000
G1 F8000
M4
G1 X349.9036 Y292.7001 S70
; Cutting distance: 9.50 units
M5

; Path 283/2892 - Power: 70 (100%)
; Travel distance: 11.64 units
G0 X339.2314 Y297.3415 S0 F10000
G1 F8000
M4
G1 X340.5996 Y290.7974 S70
; Cutting distance: 6.69 units
M5

; Path 284/2892 - Power: 70 (100%)
; Travel distance: 17.27 units
G0 X323.7117 Y287.1979 S0 F10000
G1 F8000
M4
G1 X333.7928 Y289.3683 S70
; Cutting distance: 10.31 units
M5

; Path 285/2892 - Power: 70 (100%)
; Travel distance: 0.00 units
G0 X333.7928 Y289.3683 S0 F10000
G1 F8000
M4
G1 X340.5996 Y290.7974 S70
; Cutting distance: 6.96 units
M5

; Path 286/2892 - Power: 70 (100%)
; Travel distance: 9.60 units
G0 X332.4778 Y295.9124 S0 F10000
G1 F8000
M4
G1 X333.7928 Y289.3683 S70
; Cutting distance: 6.67 units
M5

; Path 287/2892 - Power: 70 (100%)
; Travel distance: 10.31 units
G0 X323.7117 Y287.1979 S0 F10000
G1 F8000
M4
G1 X333.7928 Y289.3683 S70
; Cutting distance: 10.31 units
M5

; Path 288/2892 - Power: 70 (100%)
; Travel distance: 12.48 units
G0 X322.0777 Y293.6823 S0 F10000
G1 F8000
M4
G1 X323.7117 Y287.1979 S70
; Cutting distance: 6.69 units
M5

; Path 289/2892 - Power: 70 (100%)
; Travel distance: 8.90 units
G0 X315.0684 Y285.0934 S0 F10000
G1 F8000
M4
G1 X315.5861 Y285.0913 S70
G1 X316.2088 Y285.1490 S70
G1 X320.9095 Y286.1333 S70
G1 X321.2614 Y286.2960 S70
G1 X321.7980 Y286.6481 S70
G1 X322.1967 Y286.8540 S70
G1 X323.7117 Y287.1979 S70
; Cutting distance: 8.98 units
M5

; Path 290/2892 - Power: 70 (100%)
; Travel distance: 9.47 units
G0 X314.5508 Y284.8133 S0 F10000
G1 F8000
M4
G1 X315.0684 Y285.0934 S70
; Cutting distance: 0.59 units
M5

; Path 291/2892 - Power: 70 (100%)
; Travel distance: 0.00 units
G0 X315.0684 Y285.0934 S0 F10000
G1 F8000
M4
G1 X315.5861 Y285.0913 S70
G1 X316.2088 Y285.1490 S70
G1 X320.9095 Y286.1333 S70
G1 X321.2614 Y286.2960 S70
G1 X321.7980 Y286.6481 S70
G1 X322.1967 Y286.8540 S70
G1 X323.7117 Y287.1979 S70
; Cutting distance: 8.98 units
M5

; Path 292/2892 - Power: 70 (100%)
; Travel distance: 8.90 units
G0 X315.0684 Y285.0934 S0 F10000
G1 F8000
M4
G1 X315.4076 Y285.5732 S70
G1 X315.5013 Y286.1539 S70
G1 X315.3279 Y286.7160 S70
; Cutting distance: 1.76 units
M5

; Path 293/2892 - Power: 70 (100%)
; Travel distance: 21.01 units
G0 X331.5829 Y300.0225 S0 F10000
G1 F8000
M4
G1 X332.4778 Y295.9124 S70
; Cutting distance: 4.21 units
M5

; Path 294/2892 - Power: 70 (100%)
; Travel distance: 0.00 units
G0 X332.4778 Y295.9124 S0 F10000
G1 F8000
M4
G1 X333.7928 Y289.3683 S70
; Cutting distance: 6.67 units
M5

; Path 295/2892 - Power: 70 (100%)
; Travel distance: 6.67 units
G0 X332.4778 Y295.9124 S0 F10000
G1 F8000
M4
G1 X339.2314 Y297.3415 S70
; Cutting distance: 6.90 units
M5

; Path 296/2892 - Power: 70 (100%)
; Travel distance: 17.54 units
G0 X322.0777 Y293.6823 S0 F10000
G1 F8000
M4
G1 X324.9306 Y294.2939 S70
G1 X332.2259 Y295.8589 S70
G1 X332.4778 Y295.9124 S70
; Cutting distance: 10.64 units
M5

; Path 297/2892 - Power: 70 (100%)
; Travel distance: 6.90 units
G0 X339.2314 Y297.3415 S0 F10000
G1 F8000
M4
G1 X340.5996 Y290.7974 S70
; Cutting distance: 6.69 units
M5

; Path 298/2892 - Power: 70 (100%)
; Travel distance: 6.69 units
G0 X339.2314 Y297.3415 S0 F10000
G1 F8000
M4
G1 X348.4645 Y299.2812 S70
; Cutting distance: 9.43 units
M5

; Path 299/2892 - Power: 70 (100%)
; Travel distance: 16.34 units
G0 X332.4778 Y295.9124 S0 F10000
G1 F8000
M4
G1 X339.2314 Y297.3415 S70
; Cutting distance: 6.90 units
M5

; Path 300/2892 - Power: 70 (100%)
; Travel distance: 17.54 units
G0 X322.0777 Y293.6823 S0 F10000
G1 F8000
M4
G1 X323.7117 Y287.1979 S70
; Cutting distance: 6.69 units
M5

; Path 301/2892 - Power: 70 (100%)
; Travel distance: 6.69 units
G0 X322.0777 Y293.6823 S0 F10000
G1 F8000
M4
G1 X324.9306 Y294.2939 S70
G1 X332.2259 Y295.8589 S70
G1 X332.4778 Y295.9124 S70
; Cutting distance: 10.64 units
M5

; Path 302/2892 - Power: 70 (100%)
; Travel distance: 13.76 units
G0 X318.9528 Y293.3858 S0 F10000
G1 F8000
M4
G1 X319.6945 Y293.2210 S70
G1 X320.6589 Y293.3837 S70
G1 X321.8157 Y293.6267 S70
G1 X322.0777 Y293.6823 S70
; Cutting distance: 3.19 units
M5

; Path 303/2892 - Power: 70 (100%)
; Travel distance: 9.70 units
G0 X315.3279 Y286.7160 S0 F10000
G1 F8000
M4
G1 X317.3327 Y287.6386 S70
G1 X318.7072 Y288.3325 S70
G1 X320.0185 Y289.4280 S70
G1 X319.7957 Y291.0197 S70
G1 X318.9528 Y293.3858 S70
; Cutting distance: 9.57 units
M5

; Path 304/2892 - Power: 70 (100%)
; Travel distance: 9.16 units
G0 X315.0684 Y285.0934 S0 F10000
G1 F8000
M4
G1 X315.4076 Y285.5732 S70
G1 X315.5013 Y286.1539 S70
G1 X315.3279 Y286.7160 S70
; Cutting distance: 1.76 units
M5

; Path 305/2892 - Power: 70 (100%)
; Travel distance: 1.09 units
G0 X314.4343 Y287.3400 S0 F10000
G1 F8000
M4
G1 X314.9494 Y287.1258 S70
G1 X315.3279 Y286.7160 S70
; Cutting distance: 1.12 units
M5

; Path 306/2892 - Power: 70 (100%)
; Travel distance: 26.02 units
G0 X302.3699 Y309.2766 S0 F10000
G1 F8000
M4
G1 X302.9774 Y308.5229 S70
G1 X303.3900 Y307.7734 S70
G1 X314.2381 Y287.8404 S70
G1 X314.4343 Y287.3400 S70
; Cutting distance: 25.05 units
M5

; Path 307/2892 - Power: 70 (100%)
; Travel distance: 0.00 units
G0 X314.4343 Y287.3400 S0 F10000
G1 F8000
M4
G1 X314.9494 Y287.1258 S70
G1 X315.3279 Y286.7160 S70
; Cutting distance: 1.12 units
M5

; Path 308/2892 - Power: 70 (100%)
; Travel distance: 1.09 units
G0 X314.4343 Y287.3400 S0 F10000
G1 F8000
M4
G1 X313.5407 Y287.1732 S70
G1 X312.9750 Y286.4607 S70
G1 X313.0180 Y285.5526 S70
G1 X313.6458 Y284.8978 S70
G1 X314.0774 Y284.7701 S70
G1 X314.5508 Y284.8133 S70
; Cutting distance: 4.56 units
M5

; Path 309/2892 - Power: 70 (100%)
; Travel distance: 25.32 units
G0 X298.5653 Y304.4498 S0 F10000
G1 F8000
M4
G1 X302.3699 Y309.2766 S70
; Cutting distance: 6.15 units
M5

; Path 310/2892 - Power: 70 (100%)
; Travel distance: 17.32 units
G0 X289.8486 Y321.2446 S0 F10000
G1 F8000
M4
G1 X302.3699 Y309.2766 S70
; Cutting distance: 17.32 units
M5

; Path 311/2892 - Power: 70 (100%)
; Travel distance: 0.00 units
G0 X302.3699 Y309.2766 S0 F10000
G1 F8000
M4
G1 X302.9774 Y308.5229 S70
G1 X303.3900 Y307.7734 S70
G1 X314.2381 Y287.8404 S70
G1 X314.4343 Y287.3400 S70
; Cutting distance: 25.05 units
M5

; Path 312/2892 - Power: 70 (100%)
; Travel distance: 25.04 units
G0 X302.3699 Y309.2766 S0 F10000
G1 F8000
M4
G1 X303.8647 Y310.8601 S70
G1 X305.8416 Y312.4930 S70
; Cutting distance: 4.74 units
M5

; Path 313/2892 - Power: 70 (100%)
; Travel distance: 10.85 units
G0 X298.5653 Y304.4498 S0 F10000
G1 F8000
M4
G1 X302.3699 Y309.2766 S70
; Cutting distance: 6.15 units
M5

; Path 314/2892 - Power: 70 (100%)
; Travel distance: 14.60 units
G0 X293.6709 Y297.5536 S0 F10000
G1 F8000
M4
G1 X298.5653 Y304.4498 S70
; Cutting distance: 8.46 units
M5

; Path 315/2892 - Power: 70 (100%)
; Travel distance: 8.46 units
G0 X293.6709 Y297.5536 S0 F10000
G1 F8000
M4
G1 X296.8756 Y294.9734 S70
G1 X301.9029 Y301.5566 S70
G1 X298.5653 Y304.4498 S70
; Cutting distance: 16.81 units
M5

; Path 316/2892 - Power: 70 (100%)
; Travel distance: 8.46 units
G0 X293.6709 Y297.5536 S0 F10000
G1 F8000
M4
G1 X290.2460 Y300.3129 S70
G1 X295.2733 Y307.0300 S70
G1 X298.5653 Y304.4498 S70
; Cutting distance: 16.97 units
M5

; Path 317/2892 - Power: 70 (100%)
; Travel distance: 8.46 units
G0 X293.6709 Y297.5536 S0 F10000
G1 F8000
M4
G1 X298.5653 Y304.4498 S70
; Cutting distance: 8.46 units
M5

; Path 318/2892 - Power: 70 (100%)
; Travel distance: 8.46 units
G0 X293.6709 Y297.5536 S0 F10000
G1 F8000
M4
G1 X296.8756 Y294.9734 S70
G1 X301.9029 Y301.5566 S70
G1 X298.5653 Y304.4498 S70
; Cutting distance: 16.81 units
M5

; Path 319/2892 - Power: 70 (100%)
; Travel distance: 8.46 units
G0 X293.6709 Y297.5536 S0 F10000
G1 F8000
M4
G1 X290.2460 Y300.3129 S70
G1 X295.2733 Y307.0300 S70
G1 X298.5653 Y304.4498 S70
; Cutting distance: 16.97 units
M5

; Path 320/2892 - Power: 70 (100%)
; Travel distance: 10.85 units
G0 X305.8416 Y312.4930 S0 F10000
G1 F8000
M4
G1 X307.2326 Y310.9569 S70
G1 X308.1971 Y310.1600 S70
G1 X308.8970 Y309.3960 S70
; Cutting distance: 4.36 units
M5

; Path 321/2892 - Power: 70 (100%)
; Travel distance: 10.52 units
G0 X301.9345 Y317.2827 S0 F10000
G1 F8000
M4
G1 X303.7280 Y315.1926 S70
G1 X305.8416 Y312.4930 S70
; Cutting distance: 6.18 units
M5

; Path 322/2892 - Power: 70 (100%)
; Travel distance: 4.73 units
G0 X302.3699 Y309.2766 S0 F10000
G1 F8000
M4
G1 X303.8647 Y310.8601 S70
G1 X305.8416 Y312.4930 S70
; Cutting distance: 4.74 units
M5

; Path 323/2892 - Power: 70 (100%)
; Travel distance: 44.62 units
G0 X348.4645 Y299.2812 S0 F10000
G1 F8000
M4
G1 X349.9036 Y292.7001 S70
; Cutting distance: 6.74 units
M5

; Path 324/2892 - Power: 70 (100%)
; Travel distance: 6.74 units
G0 X348.4645 Y299.2812 S0 F10000
G1 F8000
M4
G1 X357.0939 Y301.1386 S70
; Cutting distance: 8.83 units
M5

; Path 325/2892 - Power: 70 (100%)
; Travel distance: 18.26 units
G0 X339.2314 Y297.3415 S0 F10000
G1 F8000
M4
G1 X348.4645 Y299.2812 S70
; Cutting distance: 9.43 units
M5

; Path 326/2892 - Power: 70 (100%)
; Travel distance: 12.25 units
G0 X351.0212 Y287.3008 S0 F10000
G1 F8000
M4
G1 X351.6844 Y284.1317 S70
; Cutting distance: 3.24 units
M5

; Path 327/2892 - Power: 70 (100%)
; Travel distance: 8.75 units
G0 X349.9036 Y292.7001 S0 F10000
G1 F8000
M4
G1 X351.0212 Y287.3008 S70
; Cutting distance: 5.51 units
M5

; Path 328/2892 - Power: 70 (100%)
; Travel distance: 6.89 units
G0 X344.3371 Y285.6267 S0 F10000
G1 F8000
M4
G1 X344.7852 Y285.9294 S70
G1 X351.0212 Y287.3008 S70
; Cutting distance: 6.93 units
M5

; Path 329/2892 - Power: 70 (100%)
; Travel distance: 0.00 units
G0 X351.0212 Y287.3008 S0 F10000
G1 F8000
M4
G1 X351.6844 Y284.1317 S70
; Cutting distance: 3.24 units
M5

; Path 330/2892 - Power: 70 (100%)
; Travel distance: 0.00 units
G0 X351.6844 Y284.1317 S0 F10000
G1 F8000
M4
G1 X352.2160 Y281.5722 S70
; Cutting distance: 2.61 units
M5

; Path 331/2892 - Power: 70 (100%)
; Travel distance: 7.29 units
G0 X345.0092 Y282.6841 S0 F10000
G1 F8000
M4
G1 X351.6844 Y284.1317 S70
; Cutting distance: 6.83 units
M5

; Path 332/2892 - Power: 70 (100%)
; Travel distance: 23.02 units
G0 X329.1870 Y279.2700 S0 F10000
G1 F8000
M4
G1 X345.0092 Y282.6841 S70
; Cutting distance: 16.19 units
M5

; Path 333/2892 - Power: 70 (100%)
; Travel distance: 6.83 units
G0 X351.6844 Y284.1317 S0 F10000
G1 F8000
M4
G1 X352.2160 Y281.5722 S70
; Cutting distance: 2.61 units
M5

; Path 334/2892 - Power: 70 (100%)
; Travel distance: 0.00 units
G0 X352.2160 Y281.5722 S0 F10000
G1 F8000
M4
G1 X352.8361 Y281.7040 S70
G1 X353.7411 Y282.0355 S70
G1 X354.9486 Y282.6265 S70
G1 X356.1269 Y283.2895 S70
G1 X361.1959 Y288.1966 S70
G1 X365.8397 Y292.6898 S70
; Cutting distance: 17.81 units
M5

; Path 335/2892 - Power: 70 (100%)
; Travel distance: 51.00 units
G0 X317.7858 Y275.5964 S0 F10000
G1 F8000
M4
G1 X325.2773 Y270.0613 S70
G1 X325.7798 Y269.7194 S70
G1 X326.3544 Y269.4868 S70
G1 X326.8227 Y269.4868 S70
G1 X343.0993 Y273.0245 S70
G1 X343.6651 Y273.3519 S70
G1 X344.0638 Y273.8770 S70
G1 X344.3169 Y274.6759 S70
G1 X344.5700 Y275.5696 S70
G1 X345.0295 Y276.1997 S70
G1 X352.2160 Y281.5722 S70
; Cutting distance: 40.50 units
M5

; Path 336/2892 - Power: 70 (100%)
; Travel distance: 0.00 units
G0 X352.2160 Y281.5722 S0 F10000
G1 F8000
M4
G1 X352.8361 Y281.7040 S70
G1 X353.7411 Y282.0355 S70
G1 X354.9486 Y282.6265 S70
G1 X356.1269 Y283.2895 S70
G1 X361.1959 Y288.1966 S70
G1 X365.8397 Y292.6898 S70
; Cutting distance: 17.81 units
M5

; Path 337/2892 - Power: 70 (100%)
; Travel distance: 51.00 units
G0 X317.7858 Y275.5964 S0 F10000
G1 F8000
M4
G1 X325.2773 Y270.0613 S70
G1 X325.7798 Y269.7194 S70
G1 X326.3544 Y269.4868 S70
G1 X326.8227 Y269.4868 S70
G1 X343.0993 Y273.0245 S70
G1 X343.6651 Y273.3519 S70
G1 X344.0638 Y273.8770 S70
G1 X344.3169 Y274.6759 S70
G1 X344.5700 Y275.5696 S70
G1 X345.0295 Y276.1997 S70
G1 X352.2160 Y281.5722 S70
; Cutting distance: 40.50 units
M5

; Path 338/2892 - Power: 70 (100%)
; Travel distance: 36.69 units
G0 X315.5304 Y280.9091 S0 F10000
G1 F8000
M4
G1 X315.7519 Y280.3593 S70
G1 X316.0202 Y279.9351 S70
G1 X316.3556 Y279.6592 S70
G1 X316.7834 Y279.4841 S70
G1 X317.5858 Y279.4780 S70
G1 X322.2258 Y280.4808 S70
G1 X324.0927 Y281.2386 S70
G1 X339.1833 Y284.6713 S70
G1 X340.6857 Y284.8092 S70
