; G-code generated from SVG file
; Source: test.svg
; Date: 2026-01-20 14:22:01
; Settings: min_power=0, max_power=1000, feedrate=1000, reposition_speed=3000
; Optimization: enabled (balanced)
; SVG dimensions: 100.0x100.0, ViewBox: [0.0, 0.0, 100.0, 100.0]
; Total paths: 4, Valid paths: 4

G90 (use absolute coordinates)
G0 X0 Y0 S0
G1 M4 F1000

; Path 1/4 - Power: 498 (49%)
G0 X10.0000 Y10.0000 S0 F3000
G1 F1000
M4
G1 X90.0000 Y90.0000 S498
; Cutting distance: 113.14 units
M5

; Path 2/4 - Power: 1000 (100%)
; Travel distance: 80.00 units
G0 X10.0000 Y90.0000 S0 F3000
G1 F1000
M4
G1 X90.0000 Y10.0000 S1000
; Cutting distance: 113.14 units
M5

; Path 3/4 - Power: 1000 (100%)
; Travel distance: 80.00 units
G0 X10.0000 Y10.0000 S0 F3000
G1 F1000
M4
G1 X90.0000 Y10.0000 S1000
G1 X90.0000 Y90.0000 S1000
G1 X10.0000 Y90.0000 S1000
G1 X10.0000 Y10.0000 S1000
; Cutting distance: 320.00 units
M5

; Path 4/4 - Power: 749 (74%)
; Travel distance: 41.23 units
G0 X20.0000 Y50.0000 S0 F3000
G1 F1000
M4
G1 X21.8092 Y60.2606 S749
G1 X27.0187 Y69.2836 S749
G1 X35.0000 Y75.9808 S749
G1 X44.7906 Y79.5442 S749
G1 X55.2094 Y79.5442 S749
G1 X65.0000 Y75.9808 S749
G1 X72.9813 Y69.2836 S749
G1 X78.1908 Y60.2606 S749
G1 X80.0000 Y50.0000 S749
G1 X78.1908 Y39.7394 S749
G1 X72.9813 Y30.7164 S749
G1 X65.0000 Y24.0192 S749
G1 X55.2094 Y20.4558 S749
G1 X44.7906 Y20.4558 S749
G1 X35.0000 Y24.0192 S749
G1 X27.0187 Y30.7164 S749
G1 X21.8092 Y39.7394 S749
G1 X20.0000 Y50.0000 S749
; Cutting distance: 187.54 units
M5
M5 S0 F1000
G0 X0 Y0 Z0 F3000 (move back to origin)
